edoardo-cioffi-1997/KR-120-R2700/trajectories/joint_trajectories_kr120.csv
q1,q2,q3,q4,q5,q6,q7,q8,q9,q10
0.00123401,0.00751834,0.00761409,-0.000586348,-0.00451949,-0.00116841,-4.44829e-06,-9.79192e-07,0.000698259,-0.000698219
0.00122132,0.00753101,0.00760943,-0.000583625,-0.00452358,-0.0011642,-2.87729e-08,2.70568e-06,0.000698437,-0.000698383
0.00117981,0.0074976,0.00762131,-0.000584522,-0.00450447,-0.00116471,-7.86637e-07,1.80156e-05,0.000691451,-0.000691981
0.00126974,0.00748854,0.00761825,-0.000583604,-0.00449986,-0.00116303,-8.9871e-06,2.71456e-05,0.000695445,-0.000695331
0.00122003,0.00751228,0.00761416,-0.000582902,-0.00451117,-0.0011629,1.91142e-07,3.01846e-06,0.000701731,-0.000701769
0.00122729,0.00752151,0.00760509,-0.000580954,-0.00452102,-0.0011623,-1.5974e-05,2.7026e-05,0.000697627,-0.000697701
0.00118261,0.00754701,0.00759877,-0.000582033,-0.00452834,-0.00116239,7.23869e-07,2.36048e-06,0.000705253,-0.000705491
0.00119792,0.0075695,0.00759169,-0.000582244,-0.00452688,-0.00116216,-3.00149e-06,1.01909e-05,0.000705475,-0.000705376
0.00121969,0.00759289,0.00758671,-0.000579566,-0.00453474,-0.00116171,-1.34867e-05,3.07436e-06,0.000706901,-0.000707184
0.00120316,0.00759513,0.00758628,-0.000582351,-0.00453261,-0.0011629,-6.77274e-06,2.63778e-05,0.000703172,-0.000702969
0.00119342,0.00758304,0.00760239,-0.000583015,-0.00451389,-0.0011635,-6.8686e-06,2.0251e-05,0.000701944,-0.000702204
0.0011726,0.00756758,0.00761387,-0.00058389,-0.00449877,-0.00116235,-1.44212e-05,1.03362e-06,0.000695379,-0.000695673
0.0012133,0.00757632,0.00762312,-0.000582994,-0.00447631,-0.00116157,8.2344e-08,1.36368e-07,0.000693806,-0.000693815
0.00126124,0.00756183,0.00763255,-0.000580363,-0.00446254,-0.00116058,-3.22194e-07,2.35943e-05,0.000696508,-0.00069644
0.00122097,0.00755708,0.00764215,-0.000580165,-0.00443937,-0.0011605,-8.16358e-06,-1.87575e-06,0.000694064,-0.000694072
0.00121715,0.0075473,0.00765387,-0.000580276,-0.0044167,-0.00116099,-2.52878e-06,4.9217e-06,0.000691351,-0.000691387
0.00118175,0.00753986,0.00766148,-0.000580126,-0.00440521,-0.00116131,-2.48513e-06,2.42501e-05,0.00069548,-0.00069584
0.00124396,0.00753911,0.0076562,-0.00058197,-0.00440979,-0.00116321,-1.31392e-05,9.88035e-06,0.000698739,-0.000698576
0.00122992,0.00756938,0.00765038,-0.000582666,-0.00443201,-0.00116374,-2.76e-06,1.90988e-05,0.000698598,-0.000699052
0.00125281,0.00761275,0.00764351,-0.00058119,-0.00445174,-0.00116357,-4.84005e-06,-5.27841e-07,0.000701194,-0.000701559
0.00121424,0.00760687,0.00764433,-0.000578506,-0.00446293,-0.00116283,2.16105e-07,2.65701e-05,0.00070706,-0.000707173
0.00121798,0.00760518,0.00763656,-0.000577754,-0.00447736,-0.00116224,-1.72135e-06,1.34052e-05,0.000699926,-0.00069994
0.00120074,0.00762959,0.00762714,-0.000580198,-0.00449697,-0.00116361,-4.5279e-06,2.1798e-06,0.000702166,-0.000702414
0.00117064,0.00763201,0.00762419,-0.000579478,-0.00450574,-0.00116154,-1.09853e-05,2.4055e-05,0.000699604,-0.000699977
0.0011783,0.00759651,0.00762388,-0.00058018,-0.00450788,-0.00116091,-4.96007e-06,1.85554e-05,0.000699162,-0.000699049
0.00119051,0.00758078,0.00761991,-0.000578987,-0.00452705,-0.00116028,-2.41699e-06,7.36459e-07,0.000699581,-0.000699595
0.00115372,0.00758512,0.00761275,-0.000579466,-0.00454795,-0.0011618,-1.20025e-05,1.9479e-06,0.000701579,-0.000701874
0.00117274,0.00756146,0.00760841,-0.000579808,-0.0045548,-0.0011621,-2.70698e-06,1.19783e-05,0.000701387,-0.000701734
0.00117621,0.0075627,0.00759843,-0.000581003,-0.00454655,-0.00116312,-2.97801e-06,-2.28225e-07,0.000701746,-0.000701677
0.0011706,0.00752752,0.00760736,-0.000581182,-0.00453883,-0.00116365,-1.13442e-05,3.3041e-05,0.000701107,-0.000701318
0.00124503,0.00750703,0.00759845,-0.000582923,-0.00453379,-0.00116474,-8.3288e-06,4.04632e-06,0.000697721,-0.000697622
0.00121598,0.0075152,0.00759514,-0.000580654,-0.00453919,-0.00116446,-1.0266e-05,1.10745e-05,0.000696674,-0.000696623
0.00126874,0.00750248,0.0075954,-0.000579825,-0.00454044,-0.00116515,2.45064e-06,3.9346e-06,0.000703396,-0.000703457
0.00123541,0.00750413,0.00760432,-0.000580157,-0.00452408,-0.0011649,4.55042e-06,3.75874e-05,0.000699604,-0.000699802
0.00122519,0.00751789,0.00760119,-0.000580955,-0.00452144,-0.00116414,-1.5871e-05,1.9008e-05,0.000701944,-0.000701788
0.00124803,0.00752914,0.0076084,-0.000580454,-0.0044985,-0.00116364,-8.95421e-07,4.10073e-06,0.000691937,-0.000692063
0.0012678,0.00752752,0.00762002,-0.000580794,-0.00447605,-0.00116446,-6.34543e-07,1.27458e-06,0.000691129,-0.000691171
0.00122716,0.00753622,0.00763127,-0.000580782,-0.00445325,-0.00116478,1.43178e-06,2.74903e-07,0.000692717,-0.000692686
0.00124869,0.00754763,0.00764241,-0.000580903,-0.00443057,-0.00116535,-5.49835e-07,-9.01682e-07,0.000691751,-0.000691762
0.00126611,0.00755399,0.00765348,-0.000581412,-0.00440793,-0.00116632,-7.02442e-07,-2.30541e-07,0.000692249,-0.000692268
0.00124416,0.007562,0.00766492,-0.000581573,-0.00438933,-0.00116629,4.31349e-07,1.13902e-05,0.00069221,-0.000692643
0.00121211,0.0075789,0.00766657,-0.000582498,-0.00439357,-0.00116751,-1.26919e-06,2.88794e-05,0.000704882,-0.000705058
0.00124806,0.00762354,0.00766198,-0.000583692,-0.00439437,-0.00116842,1.53992e-07,3.34751e-06,0.000701063,-0.000700839
0.00125483,0.00763452,0.00767309,-0.000581992,-0.00438133,-0.00116673,-3.71563e-06,3.12897e-05,0.000699054,-0.000698951
0.00119292,0.00762266,0.00768263,-0.000578577,-0.00437722,-0.00116609,5.4643e-07,6.8322e-06,0.000705026,-0.000704988
0.00125451,0.0076243,0.007674,-0.000576598,-0.00438521,-0.00116471,-1.53128e-07,2.69544e-06,0.000700814,-0.000700728
0.00120874,0.00763688,0.00767222,-0.000577213,-0.0044104,-0.00116548,-3.44665e-06,2.30213e-05,0.000698608,-0.000698997
0.00119848,0.00763841,0.00766981,-0.000577625,-0.00442805,-0.00116529,-1.87848e-06,1.65195e-05,0.00070868,-0.000708749
0.00115763,0.00762654,0.00766322,-0.000578521,-0.00445166,-0.00116574,-5.69349e-06,5.97244e-07,0.000702135,-0.000702517
0.00118383,0.00762455,0.00765754,-0.000575833,-0.00445738,-0.00116509,-5.22583e-06,7.79628e-06,0.000703534,-0.000703413
0.00118154,0.0075722,0.0076694,-0.000576308,-0.0044392,-0.00116555,1.78294e-06,2.30983e-05,0.000693823,-0.000694342
0.00121349,0.00754425,0.00766669,-0.000575357,-0.00444498,-0.00116493,-1.7745e-05,1.05931e-05,0.000697663,-0.000697946
0.00116364,0.0075218,0.0076671,-0.000575455,-0.00445007,-0.00116539,5.63422e-08,2.07737e-05,0.000700826,-0.0007011
0.00119399,0.00750882,0.0076664,-0.000572522,-0.00445054,-0.00116463,-1.11487e-05,1.10259e-05,0.000702318,-0.000702557
0.00121095,0.00750157,0.00765477,-0.000570632,-0.00446554,-0.0011636,-1.26767e-06,1.13074e-07,0.000697654,-0.000697995
0.00119859,0.00751884,0.00764624,-0.0005708,-0.00448486,-0.00116469,3.82611e-07,1.56791e-05,0.000703287,-0.000703469
0.00121288,0.00751775,0.00764006,-0.000570889,-0.00450171,-0.00116506,-2.67873e-06,2.02649e-05,0.000702912,-0.000703183
0.00123031,0.00753049,0.00762976,-0.000570692,-0.00451983,-0.00116598,-1.84751e-06,1.88384e-05,0.00069824,-0.000698203
0.00124921,0.007529,0.00763111,-0.000571967,-0.0045224,-0.00116588,-2.13941e-05,1.75565e-05,0.000695748,-0.000695667
0.00126296,0.00756071,0.00763058,-0.000572899,-0.00451601,-0.00116505,-2.04674e-06,9.83621e-07,0.000699088,-0.000698807
0.00121904,0.00753224,0.00764106,-0.000572144,-0.00450167,-0.0011647,-8.10756e-07,4.13409e-05,0.000697612,-0.000697448
0.00120968,0.00755551,0.00763903,-0.000570402,-0.00450744,-0.00116456,-9.16155e-07,1.03579e-06,0.000704385,-0.000704602
0.00122283,0.00757792,0.00762646,-0.000570772,-0.00450458,-0.0011649,1.77176e-07,5.5264e-06,0.000699499,-0.00069919
0.00117605,0.00760156,0.00761783,-0.000571657,-0.0045143,-0.00116484,-3.23262e-06,5.6414e-06,0.000703128,-0.000703327
0.00120902,0.00760447,0.00761539,-0.00057275,-0.00452235,-0.00116537,-9.11533e-06,6.18202e-06,0.000701579,-0.000701919
0.00115012,0.0076029,0.00761458,-0.000574436,-0.00453397,-0.00116537,-9.95391e-06,7.6101e-06,0.000700657,-0.000701118
0.00118385,0.00761384,0.0076085,-0.000574289,-0.00453812,-0.0011661,-1.45401e-05,1.22965e-06,0.000701729,-0.000701867
0.00111833,0.00762438,0.00760292,-0.000574488,-0.0045443,-0.00116656,-1.44663e-06,-7.45377e-07,0.000703809,-0.000704119
0.00116632,0.00759246,0.00760808,-0.000576712,-0.00454377,-0.00116566,-3.94952e-06,1.37166e-05,0.00070597,-0.000706168
0.00113275,0.00757839,0.00761395,-0.000576253,-0.00452489,-0.00116589,-1.40118e-05,1.03168e-05,0.000694159,-0.000694718
0.0011443,0.00754811,0.0076189,-0.00057596,-0.00451716,-0.00116587,-2.22091e-05,2.2664e-05,0.000705148,-0.000705167
0.00116132,0.00754056,0.00760977,-0.000575987,-0.00450993,-0.0011665,5.99349e-07,2.02614e-05,0.000697285,-0.000696989
0.00119422,0.00753172,0.00760771,-0.00057329,-0.00451547,-0.0011665,-8.32518e-06,8.6064e-06,0.000697979,-0.000698029
0.00122665,0.00755003,0.00759692,-0.000574947,-0.00452063,-0.00116678,-2.94531e-06,7.7753e-06,0.000698733,-0.00069861
0.00125102,0.00754158,0.00759993,-0.000574024,-0.00452588,-0.00116677,7.92041e-07,1.37176e-05,0.000704689,-0.000704956
0.00123333,0.0075353,0.0075915,-0.000575577,-0.00451975,-0.00116655,-4.46793e-06,2.16939e-05,0.00069647,-0.00069634
0.00126437,0.00754876,0.00758526,-0.00057752,-0.00452988,-0.00116772,4.97379e-07,1.25877e-05,0.000699155,-0.000699448
0.00128178,0.00756804,0.00758124,-0.000579073,-0.00451994,-0.00116833,1.17086e-06,8.71747e-06,0.000699648,-0.000699265
0.00122436,0.00755135,0.00758966,-0.000579165,-0.0045076,-0.00116567,-9.59663e-06,1.92685e-05,0.000694748,-0.000695225
0.00124359,0.00756119,0.00758325,-0.000579888,-0.00450282,-0.00116623,-8.41586e-06,3.98896e-06,0.000704526,-0.000704582
0.00120934,0.00757514,0.00757963,-0.000579023,-0.00451537,-0.00116609,-1.36164e-05,1.20091e-05,0.000706366,-0.000706682
0.00123053,0.00756709,0.00757569,-0.00058031,-0.00452535,-0.00116608,-6.40253e-07,4.63077e-06,0.000699824,-0.000699842
0.00118751,0.00758942,0.00757573,-0.00057914,-0.00454162,-0.00116607,-1.73177e-05,2.04046e-05,0.000705721,-0.000705985
0.00120545,0.00759378,0.00756884,-0.000579947,-0.00454124,-0.00116594,3.3438e-07,2.53107e-06,0.000702677,-0.000702394
0.00121264,0.00758626,0.00757312,-0.000577198,-0.00454391,-0.00116446,-1.03448e-05,1.92663e-05,0.00069978,-0.000699678
0.00116577,0.00758353,0.00757089,-0.000579482,-0.00454705,-0.00116539,8.81571e-07,9.58751e-06,0.000700922,-0.000701075
0.00117052,0.00758384,0.00756692,-0.000580825,-0.004533,-0.00116618,-2.40238e-06,7.5431e-06,0.000701371,-0.000701158
0.00118823,0.00756721,0.00757844,-0.000578415,-0.00451351,-0.00116664,2.30604e-06,1.35116e-05,0.000693401,-0.000693246
0.00116601,0.00754752,0.00758159,-0.000579674,-0.00451386,-0.00116667,-2.00421e-06,2.49379e-06,0.000705814,-0.000705858
0.00121767,0.00754983,0.0075804,-0.000581528,-0.00451028,-0.00116648,-6.85125e-06,2.00801e-05,0.000706455,-0.000706329
0.00121067,0.00755019,0.0075828,-0.000581894,-0.00451201,-0.00116611,1.02565e-06,2.46408e-05,0.000703279,-0.000703274
0.00122722,0.00753708,0.00758124,-0.0005802,-0.00450986,-0.00116501,-6.11516e-06,6.78954e-07,0.000697518,-0.000697502
0.00124906,0.00756501,0.00758261,-0.000580317,-0.00449929,-0.00116425,-1.16991e-05,6.93416e-07,0.000699739,-0.000700015
0.00124924,0.00752454,0.00759637,-0.00058005,-0.0044856,-0.00116257,-5.91275e-06,2.92615e-05,0.000693873,-0.000693714
0.00124223,0.00754221,0.00759287,-0.000581484,-0.00448689,-0.00116108,-2.88716e-06,3.72072e-06,0.000703367,-0.000703726
0.00120554,0.00756226,0.00758617,-0.000579992,-0.00449563,-0.00116124,8.86952e-07,1.36388e-05,0.000698075,-0.000698434
0.00120916,0.0075728,0.00758193,-0.000582068,-0.0045106,-0.00116239,2.42536e-07,2.89631e-09,0.000706054,-0.000706326
0.00124582,0.00758752,0.00758763,-0.000581854,-0.00448799,-0.00116275,-6.54687e-07,2.36675e-06,0.000694751,-0.000694898
0.00118099,0.00756996,0.00759289,-0.000584033,-0.00447623,-0.0011629,-1.60497e-05,2.08494e-05,0.000699583,-0.000699448
0.00119796,0.00756077,0.00759399,-0.000585805,-0.00447517,-0.00116431,-5.94271e-06,-3.08871e-06,0.000699417,-0.000699211
0.00120201,0.007582,0.00758993,-0.000587028,-0.00448314,-0.00116524,-1.6653e-06,1.2007e-05,0.000697385,-0.000697544
0.00116186,0.00758144,0.00758842,-0.000583254,-0.00449053,-0.0011639,-6.02427e-06,9.38277e-07,0.000700113,-0.000700108
0.00118987,0.00760745,0.00758174,-0.000581413,-0.00450378,-0.00116237,-1.02927e-05,4.56537e-06,0.00070082,-0.000700702
0.00117716,0.00759707,0.0075884,-0.000580005,-0.00449927,-0.00116204,-7.84938e-06,2.59943e-08,0.000698961,-0.000698965
0.00114764,0.00755857,0.00760254,-0.000581023,-0.00448279,-0.00116309,-1.48595e-06,2.99063e-05,0.000693775,-0.000694212
0.00122935,0.00756868,0.00760657,-0.000581168,-0.00446133,-0.00116316,-2.35014e-05,-3.60159e-06,0.000694877,-0.000694777
0.00122525,0.00754443,0.00761951,-0.00058129,-0.00443901,-0.00116361,-1.10836e-06,2.24252e-06,0.000691257,-0.000691296
0.00121129,0.00753033,0.00762914,-0.000581435,-0.00441623,-0.001164,1.4091e-07,2.10299e-06,0.000691939,-0.000691896
0.00126301,0.00751646,0.0076407,-0.000581589,-0.00439377,-0.0011644,-1.37363e-06,4.19922e-06,0.000691287,-0.000691308
0.00125007,0.00751047,0.00765102,-0.0005818,-0.0043808,-0.00116492,5.35901e-07,3.12562e-06,0.000697285,-0.000697499
0.00125883,0.00753427,0.00765116,-0.00057887,-0.00437369,-0.00116368,-3.76299e-06,2.40926e-05,0.000699747,-0.000699454
0.00122184,0.00753452,0.0076589,-0.000578172,-0.00437342,-0.00116268,1.47527e-06,1.82379e-06,0.000701131,-0.000701272
0.00124779,0.00756388,0.00765229,-0.000575394,-0.00438717,-0.00116127,-1.72143e-05,1.58258e-05,0.000701771,-0.000702027
0.00122759,0.00759502,0.00764811,-0.000576648,-0.00440469,-0.00116218,-7.44633e-06,-1.21364e-07,0.000702936,-0.000702757
0.00123891,0.00760475,0.00765193,-0.00057805,-0.00440085,-0.00116136,-1.21235e-05,2.98133e-05,0.00069989,-0.000699834
0.00115779,0.00761055,0.00765391,-0.000578659,-0.00441666,-0.0011619,-3.81963e-06,6.43858e-06,0.000700213,-0.000700638
0.00117743,0.00762871,0.00764923,-0.000579333,-0.00443681,-0.00116213,-6.07774e-06,6.22023e-06,0.000706767,-0.00070705
0.00118825,0.00764544,0.00764555,-0.000578933,-0.00444244,-0.00116084,-4.53887e-06,8.89752e-07,0.000700286,-0.000700262
0.00115987,0.00762275,0.00764857,-0.000577479,-0.00445393,-0.00116004,-1.07084e-05,7.61831e-06,0.000705536,-0.000705907
0.00118904,0.00760853,0.00764016,-0.000578898,-0.00445888,-0.00116105,-7.46329e-06,2.44321e-06,0.000699939,-0.000699927
0.0011637,0.00760058,0.00763524,-0.000581002,-0.00447308,-0.00116212,-7.01894e-07,-6.00462e-07,0.000699965,-0.000700361
0.00120146,0.00759729,0.00762794,-0.000579651,-0.00447948,-0.00116178,-2.17784e-06,1.27241e-05,0.000693308,-0.000693258
0.00123852,0.00757647,0.00762717,-0.000581758,-0.00451247,-0.00116306,-1.56791e-06,-8.96758e-07,0.000700856,-0.000701282
0.00122494,0.00757619,0.00761603,-0.000582484,-0.00450874,-0.00116296,-2.22908e-05,-3.95554e-06,0.000692488,-0.000692185
0.00122942,0.00752533,0.00762355,-0.000583733,-0.00451211,-0.0011642,1.52433e-06,3.84185e-05,0.000697803,-0.000698171
0.00123972,0.00750804,0.00761312,-0.000585254,-0.00450351,-0.00116477,1.20666e-06,3.28863e-06,0.000699467,-0.000699006
0.0012084,0.00751672,0.00761718,-0.000585993,-0.00448866,-0.00116531,-6.46962e-06,2.16941e-06,0.000695117,-0.000695385
0.00123938,0.00748137,0.00762343,-0.00058392,-0.00448191,-0.0011643,-9.74071e-06,3.84997e-05,0.000701594,-0.000701734
0.00123055,0.00749738,0.007616,-0.000585348,-0.00448183,-0.00116503,-4.16894e-06,-1.13245e-06,0.000699356,-0.000699284
0.00123815,0.00751825,0.00760666,-0.000585133,-0.00448229,-0.00116452,-1.05859e-06,2.47956e-05,0.000698918,-0.000699343
0.00122266,0.00752502,0.0076015,-0.000584672,-0.00449132,-0.00116351,-8.20011e-06,3.29236e-06,0.000698291,-0.000698266
0.00120645,0.0075585,0.00759472,-0.000585411,-0.00450879,-0.00116383,-1.94933e-07,6.13935e-06,0.000701894,-0.000701787
0.00123178,0.00758796,0.00759228,-0.00058647,-0.00451307,-0.00116357,-4.70572e-06,1.71039e-05,0.000697937,-0.00069768
0.00119009,0.00758601,0.00759511,-0.000586952,-0.00452179,-0.00116356,4.16596e-06,1.24693e-05,0.000698593,-0.000698467
0.00115948,0.00760248,0.00759267,-0.000588948,-0.00453442,-0.00116431,-1.97789e-07,1.15434e-05,0.00070119,-0.000701499
0.00120113,0.00761763,0.00758888,-0.000589754,-0.00453708,-0.00116471,4.9943e-07,1.30658e-05,0.000705429,-0.000705536
0.0012247,0.00761956,0.00758825,-0.00059118,-0.00453505,-0.00116419,-1.18331e-06,2.38089e-06,0.00070696,-0.000706908
0.00119029,0.00761132,0.00758251,-0.000592464,-0.0045358,-0.0011648,-1.16854e-05,1.07732e-05,0.000702299,-0.000702609
0.0011893,0.00759759,0.00757683,-0.000594155,-0.00452251,-0.00116575,-1.55975e-06,1.68478e-06,0.000699342,-0.000699135
0.00120129,0.00759066,0.00758512,-0.000594961,-0.00450672,-0.00116665,-6.02412e-06,-6.55652e-07,0.000689906,-0.000690274
0.00122404,0.00755568,0.00759801,-0.000590742,-0.00449845,-0.00116651,-8.8545e-06,4.44054e-06,0.000697382,-0.000697496
0.00125384,0.00754534,0.00759458,-0.000592245,-0.00449949,-0.00116588,-2.07607e-06,6.61108e-06,0.000701698,-0.00070165
0.00125341,0.00753574,0.00760245,-0.000591553,-0.00448071,-0.00116556,-4.60303e-06,2.71917e-05,0.000690579,-0.000690585
0.00121417,0.00752019,0.00760206,-0.000593641,-0.00449024,-0.00116621,-3.20528e-06,2.38938e-05,0.000698126,-0.000698437
0.00125179,0.0075258,0.00759754,-0.000594667,-0.00449653,-0.00116644,-1.62307e-05,1.21274e-05,0.000696559,-0.000696585
0.00121464,0.00753964,0.00758988,-0.00059712,-0.00450942,-0.00116797,-3.00643e-06,2.07008e-05,0.000705103,-0.00070533
0.00123153,0.00754148,0.0075851,-0.000598489,-0.00451208,-0.00116769,-4.27186e-06,5.24224e-06,0.000698202,-0.000698233
0.00120544,0.00756341,0.0075852,-0.000597091,-0.00452231,-0.00116682,-3.01477e-06,2.72715e-05,0.000705673,-0.000705788
0.00125223,0.00756063,0.00757931,-0.000596073,-0.00452487,-0.00116677,8.85539e-07,-1.15774e-06,0.000700093,-0.000699912
0.00119849,0.00757778,0.00758201,-0.000596232,-0.00453048,-0.00116738,3.12347e-06,1.44913e-05,0.000703103,-0.000702948
0.00121068,0.00759117,0.00757813,-0.000593651,-0.00453101,-0.00116501,-1.61562e-06,1.3092e-05,0.000698831,-0.000698679
0.00122287,0.00758834,0.00757646,-0.000593168,-0.0045339,-0.00116352,-1.51482e-06,1.76059e-06,0.000699403,-0.000699179
0.00118419,0.00757243,0.00757754,-0.00059343,-0.00454337,-0.00116412,-2.97478e-06,2.49247e-05,0.000699644,-0.000699517
0.00116738,0.00758427,0.00756869,-0.000595873,-0.0045409,-0.00116571,6.70395e-07,1.74606e-06,0.000706793,-0.000706862
0.00119565,0.0075914,0.00756727,-0.000596574,-0.00453369,-0.00116487,-3.48189e-06,2.15223e-05,0.000702571,-0.000702452
0.00120552,0.00756175,0.00757687,-0.000594613,-0.00452865,-0.00116428,-7.1199e-07,1.69514e-05,0.000697255,-0.000697646
0.00118296,0.00755722,0.00757586,-0.00059648,-0.00452388,-0.00116371,-3.95707e-07,-1.01266e-06,0.000703369,-0.000703475
0.00121663,0.00755595,0.00757359,-0.000596819,-0.00452785,-0.00116377,-1.17698e-06,1.37919e-05,0.000703187,-0.000703502
0.00117946,0.00756478,0.00756763,-0.000596703,-0.00453906,-0.00116337,9.29742e-07,-6.23829e-07,0.000699834,-0.000700301
0.00125148,0.00756571,0.00756448,-0.000598936,-0.0045444,-0.00116415,2.21937e-07,6.92629e-06,0.000707565,-0.000707593
0.00121155,0.00755835,0.00756338,-0.000600026,-0.0045475,-0.00116528,-7.08703e-06,1.81947e-05,0.000704621,-0.000704736
0.00120906,0.0075568,0.00755514,-0.000600012,-0.00453945,-0.00116607,-5.72214e-07,1.29474e-05,0.000698274,-0.00069805
0.00122318,0.00756644,0.00755192,-0.000600521,-0.00454228,-0.00116677,-1.88812e-05,7.72225e-06,0.000699901,-0.000699706
0.0011743,0.00755507,0.00755428,-0.00060068,-0.00454696,-0.00116746,-5.26127e-06,9.73266e-07,0.000699906,-0.000700171
0.00114429,0.00756426,0.00755114,-0.000599192,-0.00454874,-0.00116715,-1.34872e-05,1.1599e-05,0.000699623,-0.000699948
0.00115809,0.00758171,0.00754496,-0.000597575,-0.00455537,-0.0011657,-5.81252e-06,-6.68904e-07,0.000702394,-0.000702725
0.00119588,0.00757899,0.00754994,-0.0005942,-0.00455747,-0.00116525,-6.03626e-06,9.56228e-06,0.000703409,-0.000703627
0.00120781,0.00756025,0.00755459,-0.000595714,-0.0045513,-0.00116529,-9.10767e-07,3.97077e-06,0.000706056,-0.000706017
0.00123185,0.00757102,0.00755564,-0.000589077,-0.00455556,-0.00116367,-4.54128e-06,1.38076e-06,0.000697014,-0.000697275
0.0011996,0.00755395,0.00755478,-0.000587069,-0.00455649,-0.00116126,-6.43234e-06,2.08631e-05,0.000700003,-0.000700025
0.00123099,0.00756179,0.00755007,-0.000589385,-0.00455378,-0.00116192,-9.40403e-07,1.64263e-05,0.000706043,-0.00070615
0.00124245,0.00756377,0.00754984,-0.000588809,-0.00455133,-0.00116147,-6.86585e-06,1.82206e-05,0.000701113,-0.000701248
0.001187,0.00755837,0.00755644,-0.000589536,-0.00453902,-0.00116045,-3.65449e-06,4.27916e-06,0.000694403,-0.000694853
0.00126513,0.00756435,0.00756777,-0.000587641,-0.00451738,-0.00115934,-5.67183e-06,9.88622e-07,0.000692052,-0.000691981
0.00122268,0.00754623,0.00757672,-0.000587768,-0.00451603,-0.00115901,-1.02709e-05,1.87254e-07,0.000699394,-0.00069956
0.00118571,0.00755016,0.00758057,-0.00058531,-0.00451923,-0.00115849,-5.93065e-06,2.37764e-06,0.000698907,-0.000699118
0.00120333,0.00755196,0.00757841,-0.000583158,-0.0045202,-0.00115686,-1.88846e-07,6.44416e-06,0.000699936,-0.00070027
0.00116848,0.0075531,0.00758898,-0.000583909,-0.00450674,-0.00115758,1.17794e-06,2.31272e-05,0.00069194,-0.000692427
0.00118331,0.00756047,0.00759269,-0.000581971,-0.00450066,-0.00115717,-1.23593e-05,2.10267e-05,0.000700243,-0.000700444
0.00120755,0.00758413,0.00759327,-0.000582205,-0.00449971,-0.0011557,-9.46572e-06,3.70459e-08,0.000696066,-0.00069628
0.00117553,0.00756302,0.00760947,-0.000580897,-0.00449449,-0.00115548,-8.45794e-06,2.79272e-05,0.000701782,-0.000701975
0.00120082,0.00756339,0.00760459,-0.000582455,-0.0044913,-0.00115667,-1.9123e-06,1.31132e-06,0.000699845,-0.000699622
0.00118193,0.00758661,0.00759674,-0.000584947,-0.00449186,-0.00115831,-4.62617e-06,8.56833e-06,0.000705688,-0.000705581
0.00116455,0.00761204,0.00759196,-0.00058728,-0.00449517,-0.00115813,-1.03577e-05,-2.75743e-07,0.000707834,-0.000708021
0.00122678,0.0075973,0.00759495,-0.000589187,-0.00449498,-0.0011591,1.2447e-06,2.94459e-06,0.000705872,-0.000706061
0.00117771,0.00760477,0.00759158,-0.000589167,-0.00449381,-0.00115916,2.68886e-07,1.48022e-05,0.000703738,-0.00070393
0.00119552,0.00759423,0.00759578,-0.000589349,-0.00448983,-0.0011589,-9.08993e-06,1.35511e-05,0.0007068,-0.000706808
0.00125844,0.00758776,0.00759204,-0.000583254,-0.00450017,-0.00115715,-1.25074e-06,1.0063e-05,0.000700091,-0.000700117
0.00118966,0.00758351,0.00758841,-0.000586026,-0.00452103,-0.00115839,-4.46952e-06,5.12007e-06,0.00070074,-0.000701143
0.00121858,0.00757906,0.00758528,-0.000584469,-0.00453259,-0.00115787,-2.12514e-06,2.39905e-05,0.000697876,-0.000698216
0.00121417,0.00759307,0.00757708,-0.000583241,-0.00454696,-0.00115849,-1.61211e-05,-2.81198e-06,0.000699786,-0.000700201
0.00123259,0.00757114,0.0075745,-0.000585187,-0.00454977,-0.00115865,-4.11652e-06,1.54992e-05,0.000707996,-0.000707962
0.00122558,0.00757191,0.00756684,-0.000581536,-0.00455203,-0.00115479,-8.35915e-06,-2.40327e-06,0.000693704,-0.000693609
0.00123826,0.00754821,0.00756447,-0.000582624,-0.00455477,-0.00115463,-3.36347e-06,4.09903e-05,0.000706461,-0.000706436
0.00127606,0.00753902,0.00756176,-0.000582623,-0.00455745,-0.00115534,-8.1647e-07,-1.03858e-06,0.000696709,-0.000697018
0.00122939,0.0075571,0.00755137,-0.000582527,-0.00456205,-0.00115623,-2.32775e-07,2.79622e-06,0.000706446,-0.000706648
0.00121153,0.00754782,0.00755605,-0.000579501,-0.00456443,-0.00115614,-7.37334e-06,1.97283e-05,0.000703696,-0.000703998
0.00117942,0.00753223,0.00755825,-0.000574635,-0.00456482,-0.00115519,7.76439e-07,-3.27285e-08,0.000698368,-0.000698731
0.00121101,0.00754876,0.00755357,-0.000575844,-0.00455347,-0.00115565,-9.05341e-06,-2.83641e-07,0.000698536,-0.000698049
0.00118947,0.0075304,0.00756908,-0.000576084,-0.00453507,-0.00115629,4.19853e-07,4.10411e-06,0.00069281,-0.000692811
0.00120666,0.00752581,0.00758206,-0.00057617,-0.00451259,-0.00115708,-1.92439e-06,3.49322e-06,0.00069169,-0.00069169
0.0011957,0.00752638,0.00759345,-0.000576179,-0.00449015,-0.00115762,-5.03701e-06,-1.67918e-07,0.000692195,-0.000692178
0.00121761,0.00752781,0.00760429,-0.000576718,-0.00446755,-0.00115855,-7.34122e-07,-3.34322e-07,0.000691541,-0.000691532
0.00120901,0.00753804,0.00761645,-0.000576627,-0.0044449,-0.00115867,1.09161e-06,2.01707e-06,0.000691905,-0.000691876
0.0011793,0.00753965,0.00762562,-0.000573719,-0.00443661,-0.0011584,-1.34849e-05,2.4723e-05,0.000697331,-0.000697605
0.0012335,0.00756864,0.00762306,-0.000573548,-0.00443579,-0.0011583,-2.54968e-06,1.57722e-06,0.000706883,-0.000706746
0.00122463,0.00759646,0.00761965,-0.00057421,-0.00445155,-0.00115798,-7.96512e-06,1.99285e-05,0.000698022,-0.000698404
0.00125131,0.00763268,0.00761671,-0.000576023,-0.00447461,-0.00115927,1.87454e-06,3.32688e-06,0.000707097,-0.000707374
0.00123137,0.00764623,0.00761602,-0.000576855,-0.00448935,-0.0011592,4.09868e-07,3.14397e-05,0.000707397,-0.000707727
0.00118911,0.00766782,0.00761193,-0.000575784,-0.00450055,-0.00115774,1.7059e-06,1.43064e-06,0.000707885,-0.000708211
0.00121853,0.00765214,0.00760906,-0.000578081,-0.00450745,-0.00115959,-1.17139e-05,6.72285e-06,0.00070351,-0.000703873
0.00121327,0.00763982,0.00760895,-0.00057783,-0.00451275,-0.00115887,-2.22087e-06,6.28231e-06,0.000698562,-0.000698977
0.0012266,0.0076236,0.00760776,-0.000578151,-0.00452179,-0.00115974,3.76793e-07,1.525e-05,0.000706769,-0.000707123
0.00122907,0.007593,0.00760299,-0.000578093,-0.00452355,-0.00116007,-5.90542e-07,4.71462e-06,0.00070033,-0.000700279
0.00118976,0.00756386,0.00760178,-0.000578656,-0.00452664,-0.00116034,6.03592e-07,2.46939e-05,0.000699171,-0.000699124
0.00116972,0.00754747,0.00759965,-0.000578275,-0.00453397,-0.00116035,-3.4433e-06,-4.29072e-07,0.000703837,-0.000704238
0.00118653,0.00752115,0.00759253,-0.000577691,-0.00453544,-0.0011598,2.14448e-08,8.39126e-06,0.000696237,-0.000696184
0.00117751,0.00752771,0.00758684,-0.0005756,-0.00454456,-0.00115852,-8.10264e-06,1.00116e-05,0.000701699,-0.000701981
0.00118513,0.00750523,0.00758442,-0.000577211,-0.00455182,-0.00115715,-5.11595e-06,5.57411e-06,0.000701229,-0.000701491
0.00114958,0.00751588,0.00758158,-0.00057798,-0.00454184,-0.00115733,-1.34814e-05,-4.51742e-06,0.000693431,-0.00069371
0.00119139,0.00749204,0.00759764,-0.000578656,-0.00452451,-0.00115704,-8.41299e-06,3.08496e-05,0.000694537,-0.000694259
0.00116724,0.00747723,0.00760649,-0.000578734,-0.0045165,-0.00115773,-4.63236e-06,1.30827e-06,0.000696351,-0.000696714
0.00120967,0.00749169,0.00760273,-0.000579482,-0.00452183,-0.001159,-9.88821e-06,1.84911e-05,0.00069825,-0.000698608
0.00123784,0.0075296,0.0075962,-0.000581126,-0.00452474,-0.00116037,1.38236e-06,1.30276e-05,0.000705669,-0.000705549
0.00121772,0.00754698,0.00758858,-0.000582042,-0.00452611,-0.00116097,-2.5545e-05,1.4796e-07,0.000699275,-0.000699042
0.00121095,0.00759673,0.00757817,-0.000584775,-0.00452954,-0.00116223,-3.54998e-06,1.11752e-09,0.000701071,-0.000701284
0.00124316,0.00760696,0.00757762,-0.000585238,-0.00452577,-0.00116139,-1.46759e-05,3.54338e-05,0.000701902,-0.000702164
0.00124986,0.00762518,0.00757679,-0.000586411,-0.00452084,-0.00116188,-8.05829e-06,3.55912e-06,0.000704515,-0.000704596
0.00120098,0.007633,0.00757921,-0.000586542,-0.0045143,-0.00116234,1.14092e-06,2.71628e-05,0.000706155,-0.000706103
0.00122036,0.00761909,0.00757983,-0.00058526,-0.00451029,-0.00116239,-1.17068e-06,1.30271e-05,0.000699158,-0.000699055
0.00121057,0.0076129,0.00759014,-0.000585701,-0.00450288,-0.00116267,1.22749e-06,2.1775e-05,0.000701713,-0.000702002
0.00120415,0.00760393,0.00759052,-0.000583752,-0.00450022,-0.00116185,-1.12792e-05,1.50852e-05,0.000701836,-0.000702059
0.00118005,0.00758382,0.0075937,-0.000584016,-0.00450486,-0.00116103,-1.94272e-06,4.49817e-06,0.000704676,-0.000705084
0.00119415,0.00757845,0.00758695,-0.00058576,-0.00451185,-0.00116236,1.9252e-06,8.94205e-06,0.000707268,-0.000707299
0.00118161,0.00756989,0.00758381,-0.000585902,-0.0045273,-0.00116144,-4.82325e-06,9.11038e-07,0.000704372,-0.000704736
0.00118273,0.00756471,0.00757658,-0.000587524,-0.00453567,-0.00116217,-3.74055e-06,5.56543e-06,0.000707111,-0.000707131
0.00117302,0.00755142,0.00756886,-0.000587923,-0.00454442,-0.00116241,3.14069e-07,4.12583e-06,0.000699354,-0.000699304
0.00117407,0.00753969,0.00756612,-0.000588606,-0.00455293,-0.00116235,-6.128e-07,2.49124e-05,0.000698706,-0.000698741
0.00117677,0.00754519,0.00756143,-0.000590078,-0.00455698,-0.00116283,-6.43789e-07,3.37778e-06,0.000704939,-0.000704858
0.00121247,0.00753626,0.00755267,-0.000590893,-0.00455833,-0.00116258,-8.04689e-06,1.08009e-05,0.000699855,-0.00070011
0.00122569,0.0075369,0.00754789,-0.000592349,-0.00455521,-0.00116331,-1.2956e-06,5.44048e-06,0.000695825,-0.000696055
0.00125198,0.00752325,0.00755438,-0.000592924,-0.00453742,-0.00116382,-7.87405e-06,7.705e-07,0.000691384,-0.000691382
0.00119831,0.00751454,0.00756498,-0.000593558,-0.00453242,-0.0011638,-9.93235e-06,1.98437e-05,0.00069695,-0.000697119
0.00121026,0.0075392,0.00755916,-0.000591877,-0.00453307,-0.00116356,2.73093e-06,2.83229e-06,0.000698272,-0.00069856
0.00121625,0.00754193,0.00756189,-0.000590709,-0.00454303,-0.00116212,-3.93815e-07,2.79573e-05,0.000703616,-0.000703742
0.00123433,0.00756004,0.00755871,-0.000591264,-0.00455525,-0.00116027,8.53744e-07,1.43688e-05,0.000706982,-0.000707104
0.00123713,0.00756935,0.00755722,-0.000590872,-0.00456669,-0.0011611,2.50637e-07,1.29864e-05,0.000705777,-0.000706167
0.00123587,0.00757388,0.00755483,-0.000591101,-0.00456366,-0.00116144,-2.61781e-06,6.07032e-06,0.000698765,-0.000698594
0.0011974,0.00759386,0.00755396,-0.000589306,-0.00455809,-0.00116146,-3.01835e-06,2.16578e-05,0.0006975,-0.000697323
0.00119923,0.00758894,0.00755611,-0.000589289,-0.00456451,-0.00116105,-5.87454e-06,-7.00033e-07,0.000700518,-0.000700932
0.00116684,0.00759191,0.00755732,-0.000587921,-0.00456465,-0.00115998,-2.75557e-06,2.28994e-05,0.000699355,-0.000699713
0.00117555,0.00758617,0.00754856,-0.000589583,-0.00455114,-0.00116156,-9.88811e-06,7.36853e-06,0.000700236,-0.000700102
0.001196,0.00759552,0.00755442,-0.000590744,-0.00454233,-0.0011623,4.73988e-07,1.17651e-05,0.000698674,-0.000698907
0.00118564,0.00758119,0.00756115,-0.000585963,-0.0045313,-0.00116012,-5.37174e-06,1.35455e-05,0.000698739,-0.000698492
0.0012076,0.00756668,0.00756769,-0.000586267,-0.00451651,-0.00115996,-8.31457e-06,1.4833e-05,0.000696997,-0.000696828
0.00122122,0.00756166,0.00757585,-0.000585209,-0.0045062,-0.00115873,-3.32417e-06,-1.15038e-06,0.000694617,-0.000694592
0.00122554,0.00753757,0.00758985,-0.000585854,-0.00448584,-0.00115989,-4.50455e-07,3.15747e-06,0.000692482,-0.000692516
0.00125108,0.00752561,0.00759988,-0.000586299,-0.00446326,-0.00116076,-2.86192e-07,3.50855e-06,0.000691124,-0.000691119
0.0012323,0.00751742,0.0076109,-0.000586659,-0.00444065,-0.00116169,-1.06119e-06,9.88271e-07,0.000691755,-0.000691734
0.00125006,0.00750656,0.00762164,-0.000586448,-0.00441776,-0.00116159,-7.86756e-06,8.19553e-06,0.000690202,-0.000690213
0.0012473,0.00750625,0.0076251,-0.000585441,-0.00441433,-0.00116111,-2.19501e-06,3.2754e-05,0.000696271,-0.000696094
0.00121702,0.00754679,0.00761957,-0.000586443,-0.00442863,-0.00116238,-6.17537e-07,1.11693e-05,0.000697904,-0.000698087
0.00125793,0.00757674,0.00761778,-0.000587224,-0.00444594,-0.0011624,-1.37309e-06,1.6489e-05,0.000699378,-0.000699843
0.00122742,0.0076029,0.0076146,-0.000588695,-0.00446104,-0.00116361,-2.59211e-06,1.51461e-05,0.000701309,-0.000701755
0.00117663,0.00763286,0.00760855,-0.000588789,-0.00447438,-0.00116472,2.6449e-07,9.56431e-07,0.000707335,-0.000707506
0.00117712,0.00763231,0.00760699,-0.000589287,-0.00448445,-0.00116517,-6.20196e-07,3.66002e-06,0.000700911,-0.000700923
0.0011903,0.0076463,0.00760649,-0.000589782,-0.00450012,-0.0011653,1.34025e-06,1.70514e-05,0.000700208,-0.00070054
0.00115397,0.00763553,0.00760476,-0.000587089,-0.00451101,-0.00116308,-1.20076e-05,4.33548e-06,0.000702008,-0.000702482
0.00117175,0.00762574,0.00760388,-0.000587317,-0.00452265,-0.00116338,-5.13923e-06,1.38308e-05,0.000707915,-0.000708232
0.00119804,0.00761583,0.00760682,-0.000587143,-0.00450338,-0.00116386,-6.40609e-07,1.6687e-06,0.000697109,-0.000697192
0.00122319,0.00758502,0.00760954,-0.000589013,-0.00449325,-0.00116445,-1.46415e-05,2.84411e-06,0.000700949,-0.000701179
0.00120644,0.00754213,0.00761356,-0.000588126,-0.00449221,-0.00116477,-1.5309e-06,1.99961e-05,0.000702912,-0.000702992
0.00127563,0.00752108,0.00760798,-0.000588137,-0.00449747,-0.00116436,-3.04767e-06,2.76015e-06,0.000702886,-0.000702942
0.00122725,0.00752294,0.00761313,-0.000587946,-0.00448179,-0.00116486,-1.06916e-05,3.39891e-06,0.000695356,-0.000695637
0.00125385,0.00748176,0.00761926,-0.000588672,-0.00447394,-0.00116486,-1.40165e-06,3.94325e-05,0.000695372,-0.000695265
0.00124962,0.0075067,0.00760917,-0.000590219,-0.00448395,-0.00116653,1.54074e-06,9.65063e-06,0.000698985,-0.0006992
0.00120337,0.00751785,0.00760344,-0.000591009,-0.00449746,-0.0011662,-1.03203e-05,1.77148e-05,0.000699257,-0.000699661
0.00118101,0.00753925,0.0075966,-0.000594211,-0.00451036,-0.00116712,1.36123e-06,1.08635e-05,0.000705881,-0.000706073
0.00116933,0.00755264,0.00759291,-0.000593971,-0.0045234,-0.00116737,-1.3661e-05,1.2501e-05,0.000704455,-0.000704837
0.00120032,0.0075831,0.00759016,-0.000594801,-0.00452606,-0.00116717,-1.3775e-05,2.5188e-06,0.000700794,-0.000700581
0.00110989,0.00758328,0.00760056,-0.000595243,-0.00451959,-0.00116658,-9.27788e-06,3.85649e-05,0.000698328,-0.000698687
0.00115662,0.00759275,0.00760193,-0.000595372,-0.00451347,-0.00116752,-1.96745e-06,8.9203e-07,0.000707721,-0.000707915
0.00116386,0.00757058,0.0076064,-0.000594143,-0.00450548,-0.0011674,-9.62356e-06,9.61166e-07,0.000698408,-0.000698356
0.00122324,0.00759641,0.00760202,-0.000596128,-0.00450656,-0.00116538,-8.23979e-06,7.99634e-06,0.000700541,-0.000700406
0.00117231,0.00759915,0.00760662,-0.000593062,-0.00451692,-0.00116559,-1.21062e-05,4.38392e-06,0.000705664,-0.000705948
0.00122779,0.00759819,0.00759902,-0.000595204,-0.00451889,-0.00116664,1.06782e-06,2.22266e-07,0.000701684,-0.000701921
0.00122581,0.00760186,0.00759925,-0.000597624,-0.00451011,-0.00116698,-1.0171e-05,1.89494e-05,0.000701667,-0.00070144
0.001237,0.00758047,0.00761505,-0.000597239,-0.00449158,-0.00116799,-1.2773e-06,2.47307e-05,0.000700225,-0.000700403
0.00125175,0.00756041,0.00762245,-0.00059592,-0.00447379,-0.00116657,-1.96261e-05,-7.77979e-07,0.000693098,-0.000692952
0.00123753,0.00754862,0.00762033,-0.000596547,-0.00447762,-0.0011661,-1.22631e-06,1.0968e-05,0.000705645,-0.000705806
0.00122513,0.00756593,0.00761354,-0.00059383,-0.00448244,-0.00116648,-8.48246e-06,2.01698e-05,0.000695301,-0.000695612
0.00121663,0.00755825,0.00760899,-0.000595978,-0.00449559,-0.00116743,-8.74691e-06,1.57323e-05,0.000704504,-0.000704808
0.00124412,0.0075583,0.00760094,-0.000596264,-0.0045055,-0.00116809,-2.71288e-07,7.63227e-06,0.000699405,-0.000699444
0.00125313,0.00757763,0.00759517,-0.000596412,-0.00451251,-0.00116765,-3.06439e-06,-1.60317e-06,0.000698566,-0.000698447
0.00121531,0.00757143,0.00759391,-0.000598822,-0.00452694,-0.00116859,6.66762e-07,1.97835e-05,0.00070653,-0.000706829
0.00123553,0.00756142,0.00759443,-0.000597096,-0.00452929,-0.00116885,2.02162e-07,1.75559e-05,0.000698995,-0.00069911
0.00122708,0.0075709,0.00758512,-0.000599383,-0.00452727,-0.0011703,-1.60117e-06,-2.6567e-07,0.000706256,-0.000706443
0.00122917,0.00758071,0.00758341,-0.000597259,-0.00452734,-0.00116963,-5.73261e-06,2.03265e-05,0.000703924,-0.000704113
0.00122025,0.00755204,0.00758435,-0.000596773,-0.00452487,-0.00116932,-1.05037e-06,1.27222e-06,0.00069916,-0.000699202
0.00123483,0.00758301,0.00757063,-0.000597093,-0.00452525,-0.0011704,-6.63977e-06,3.77309e-06,0.000702275,-0.000702561
0.00119845,0.00755996,0.00757451,-0.00059641,-0.00452801,-0.001169,4.16311e-07,7.40725e-06,0.000703647,-0.000703962
0.00121629,0.00756819,0.00756383,-0.000596181,-0.00452413,-0.00116955,-9.67058e-07,2.57127e-06,0.000700966,-0.000700816
0.00122944,0.0075643,0.00756803,-0.000592685,-0.0045324,-0.00116909,3.51163e-07,1.3971e-05,0.000705062,-0.000705375
0.0012153,0.00755128,0.00756491,-0.000592752,-0.0045357,-0.00116944,1.35909e-07,1.55595e-05,0.000697858,-0.000697759
0.00123581,0.00756209,0.00755863,-0.000595176,-0.00453903,-0.00117071,5.99525e-07,-4.02534e-07,0.000705222,-0.000705332
0.00121892,0.00756857,0.00755057,-0.000595044,-0.00453283,-0.00117026,-7.68168e-06,1.13871e-05,0.000700715,-0.000700384
0.00119414,0.00756648,0.0075536,-0.000590433,-0.00454261,-0.00116706,-7.86494e-06,1.97011e-06,0.000698225,-0.000698595
0.00123605,0.00757881,0.00754635,-0.000590948,-0.00454467,-0.00116757,-8.49352e-06,-4.28427e-07,0.00070774,-0.000707888
0.00119972,0.00755656,0.00754621,-0.000592496,-0.00453776,-0.0011676,-6.48561e-06,4.30923e-06,0.000699525,-0.000699399
0.00122591,0.00755109,0.00754645,-0.00059534,-0.00453586,-0.00116766,-2.24867e-06,1.82043e-06,0.000696719,-0.000696617
0.00119558,0.00755051,0.00754592,-0.000595504,-0.00454069,-0.0011678,-6.30743e-06,2.81214e-05,0.000696563,-0.000696522
0.00118804,0.0075591,0.00754363,-0.000596502,-0.00455119,-0.00116803,-5.61244e-06,6.12714e-08,0.000700632,-0.000701016
0.00116614,0.00756745,0.00754336,-0.000594205,-0.0045552,-0.00116834,-9.81825e-06,2.04199e-05,0.00069919,-0.000699527
0.00122241,0.00757531,0.00753938,-0.000591751,-0.00454818,-0.00116776,2.96792e-07,-3.85068e-06,0.000695786,-0.000695573
0.00122277,0.00756169,0.00754013,-0.000592818,-0.00455826,-0.00116743,-1.19277e-05,8.90765e-06,0.000699352,-0.000699732
0.00119553,0.00755182,0.0075496,-0.000593081,-0.00453938,-0.0011675,1.8274e-06,1.95627e-05,0.000693035,-0.00069303
0.00119108,0.00755526,0.00755678,-0.000592897,-0.00453532,-0.0011668,-6.22504e-06,1.94326e-05,0.000700052,-0.000700308
0.00119892,0.00756121,0.0075557,-0.000593532,-0.00453341,-0.00116726,-5.06192e-06,1.13318e-06,0.000706738,-0.000706871
0.00121691,0.00756748,0.00755435,-0.000593787,-0.0045373,-0.00116692,-1.42054e-05,-1.05614e-06,0.000706198,-0.000706394
0.00121509,0.00757025,0.0075506,-0.00059335,-0.00453795,-0.00116702,1.72378e-07,8.69114e-06,0.000700993,-0.000700879
0.00122648,0.0075622,0.00755073,-0.000592395,-0.0045371,-0.00116684,-3.58151e-06,1.00913e-05,0.000699899,-0.000699886
0.00121265,0.00757518,0.00754692,-0.000593498,-0.00454165,-0.00116673,-1.755e-07,3.91408e-06,0.000700308,-0.000700702
0.00121641,0.00758863,0.0075462,-0.000590786,-0.00453389,-0.00116645,-8.38203e-06,1.85913e-05,0.000692757,-0.000692688
0.00118952,0.00757908,0.00754806,-0.000592904,-0.00454516,-0.00116632,-6.06929e-06,-1.39992e-06,0.000699646,-0.000700027
0.00122033,0.00758285,0.00754711,-0.000595315,-0.0045495,-0.00116646,-1.78054e-07,-7.89718e-07,0.000706267,-0.000706482
0.00118368,0.00758523,0.00754967,-0.000593639,-0.00455269,-0.00116622,-7.07223e-06,2.0927e-05,0.000704519,-0.000704787
0.00116428,0.00758645,0.00754965,-0.000592739,-0.00455092,-0.00116521,1.22477e-06,-4.02602e-06,0.000698682,-0.000698998
0.00125353,0.00756436,0.00754547,-0.000594732,-0.00454422,-0.00116679,-1.06272e-05,8.05889e-06,0.000700608,-0.000700487
0.00120189,0.00755944,0.00754389,-0.000595073,-0.00454112,-0.00116749,-7.29962e-06,1.56439e-05,0.000695638,-0.000695641
0.00121381,0.00757667,0.00754236,-0.000595296,-0.00454208,-0.00116688,-1.61865e-06,1.59034e-06,0.000703072,-0.000702902
0.00122739,0.00755893,0.00755555,-0.00059555,-0.00451957,-0.00116705,1.24171e-06,3.46462e-06,0.000693806,-0.00069394
0.00118426,0.00753804,0.00756911,-0.000595607,-0.00449705,-0.00116773,-9.62404e-07,-2.05241e-07,0.000691203,-0.000691225
0.00120139,0.00752654,0.00758129,-0.000595537,-0.00447445,-0.00116781,3.23123e-07,-9.36222e-07,0.000691968,-0.000691921
0.00123856,0.00750006,0.00758929,-0.000596943,-0.00446446,-0.00116819,-1.92598e-05,2.48557e-05,0.000695477,-0.000695336
0.00119624,0.0075236,0.00758238,-0.000599155,-0.00447079,-0.00116968,-6.51261e-06,3.22793e-06,0.000703747,-0.000703842
0.00122316,0.00754909,0.00757866,-0.000599646,-0.00448575,-0.00116896,-4.57429e-06,3.24713e-06,0.000703717,-0.000704059
0.00124519,0.00757066,0.00757734,-0.000598487,-0.00450152,-0.0011688,-4.22681e-06,2.13949e-05,0.000700753,-0.000701247
0.0012177,0.00758578,0.00756973,-0.000600442,-0.00450549,-0.00117021,1.31141e-06,-2.10928e-06,0.000701902,-0.000701868
0.00118131,0.00760266,0.00757892,-0.000601003,-0.00449161,-0.00117038,-1.79068e-06,1.72097e-05,0.000700736,-0.000701106
0.00120859,0.00761358,0.00758086,-0.000601127,-0.00448956,-0.00116916,-1.64208e-05,1.86914e-05,0.000707331,-0.000707433
0.00122743,0.00760039,0.00758494,-0.000601166,-0.00448902,-0.00116889,-7.0833e-06,6.90296e-06,0.000702591,-0.000702408
0.0011748,0.0076014,0.00758791,-0.000601775,-0.00449922,-0.00116926,-7.56202e-06,1.53047e-05,0.000700799,-0.000701125
0.00118176,0.00760091,0.00758624,-0.000603237,-0.00450145,-0.00116919,-6.19426e-06,2.62205e-05,0.000698962,-0.000699221
0.00121299,0.0076082,0.00758415,-0.000604262,-0.00449759,-0.00116963,-2.51653e-05,1.18369e-05,0.000700888,-0.000700651
0.0012369,0.00758247,0.00759887,-0.000602431,-0.00448093,-0.00116855,-3.7664e-06,1.98428e-05,0.000696749,-0.000696663
0.00121314,0.0075565,0.00760713,-0.000600689,-0.00448794,-0.00116804,9.58096e-07,-1.93574e-06,0.000702162,-0.000702323
0.00121151,0.00755722,0.00760169,-0.000597492,-0.00449717,-0.00116694,6.67969e-07,1.33722e-05,0.000698397,-0.000698819
0.00120788,0.00755791,0.00759349,-0.000599511,-0.00449723,-0.00116783,3.75194e-07,4.18844e-06,0.00070672,-0.000706629
0.00117374,0.00754849,0.00759294,-0.000595984,-0.0045046,-0.00116704,-5.22071e-09,4.67012e-06,0.000696036,-0.00069635
0.00121164,0.00754192,0.00758999,-0.00059633,-0.00451031,-0.00116542,-1.11271e-05,2.38835e-05,0.000694602,-0.000694538
0.00121021,0.00755156,0.00758845,-0.000595879,-0.00452447,-0.00116358,-1.67194e-05,5.31726e-06,0.000705289,-0.000705651
0.00118097,0.00755329,0.00757782,-0.000597889,-0.00452673,-0.00116515,-2.16232e-06,2.27811e-06,0.000699546,-0.000699717
0.00115854,0.00756222,0.00757474,-0.000595728,-0.00453164,-0.00116494,-6.24669e-06,1.15863e-05,0.000698396,-0.000698751
0.00119419,0.00755474,0.00757451,-0.000595394,-0.0045409,-0.0011649,-2.16386e-06,2.15367e-07,0.000697773,-0.000698141
0.00122239,0.00758103,0.00756518,-0.000595041,-0.00455298,-0.00116561,7.414e-07,1.12713e-05,0.00070757,-0.0007078
0.00121578,0.00757549,0.00755821,-0.0005948,-0.00455254,-0.00116495,-4.91172e-07,7.47884e-06,0.000701875,-0.000701818
0.00116672,0.00757713,0.00755817,-0.000595976,-0.00455366,-0.00116531,-5.64332e-06,9.08179e-06,0.00070163,-0.000701925
0.00119904,0.00756415,0.00755711,-0.00059393,-0.00454983,-0.00116312,-1.40395e-06,2.1537e-07,0.0007005,-0.000700791
0.00118395,0.00757218,0.00755664,-0.000591309,-0.00454993,-0.00116298,-8.6159e-06,2.25447e-05,0.000698667,-0.000698736
0.00121162,0.00755075,0.0075661,-0.000589543,-0.00453056,-0.00116154,-2.03688e-06,4.62216e-06,0.000695038,-0.000695189
0.00117164,0.00755518,0.00757264,-0.000590014,-0.00452572,-0.001161,-3.59883e-06,9.88879e-06,0.00070102,-0.000701189
0.00123767,0.00753848,0.00757478,-0.000592703,-0.00452728,-0.00116249,-3.71113e-06,3.44288e-05,0.000698724,-0.00069909
0.00120477,0.0075535,0.00756646,-0.00059368,-0.00452641,-0.00116335,-3.23663e-06,2.62934e-06,0.000705227,-0.000705487
0.0012339,0.0075698,0.00756538,-0.000594437,-0.00451227,-0.00116368,-3.46451e-06,4.50013e-07,0.000699957,-0.000699765
0.00125049,0.00755833,0.00757965,-0.000594371,-0.0044902,-0.00116415,-4.8863e-07,-7.89082e-07,0.000691153,-0.000691261
0.00118493,0.00753874,0.00758731,-0.000592661,-0.00448455,-0.00116403,-1.52893e-05,2.26567e-05,0.000697675,-0.000697972
0.00122117,0.0075474,0.00759043,-0.000592151,-0.00447949,-0.00116269,-1.29044e-07,6.059e-06,0.000697581,-0.000697428
0.00117821,0.00755281,0.00759733,-0.000589853,-0.00447823,-0.00116237,-1.39187e-05,6.96928e-06,0.000694552,-0.000694976
0.00119502,0.00756138,0.00759658,-0.000588828,-0.00447948,-0.00116151,-4.87078e-06,3.86499e-07,0.000705556,-0.000705785
0.00123225,0.0075755,0.00759029,-0.000589153,-0.00448034,-0.00116226,1.61117e-07,3.82316e-06,0.000698767,-0.000698553
0.00121329,0.00758952,0.007592,-0.000590092,-0.00449217,-0.00116276,-3.21588e-06,6.10784e-06,0.000698854,-0.000699248
0.00119874,0.00759227,0.00758974,-0.000589242,-0.00449442,-0.00116328,-6.03776e-06,6.70685e-06,0.000698457,-0.000698448
0.00117581,0.0076068,0.00758701,-0.000590336,-0.00450684,-0.00116359,5.38607e-08,7.70631e-06,0.000699546,-0.000699899
0.00122491,0.00761779,0.00759173,-0.00058661,-0.00450843,-0.00116202,-7.55753e-06,6.785e-06,0.000705299,-0.000705471
0.00117985,0.00759361,0.00760199,-0.000580272,-0.00449532,-0.00115966,-9.78549e-06,4.55381e-06,0.000701484,-0.000701845
0.00115839,0.00757899,0.00760696,-0.000577541,-0.00448861,-0.00115735,-3.36308e-06,2.43908e-05,0.000698545,-0.000698764
0.00118926,0.00755138,0.0076009,-0.000579324,-0.00447976,-0.00115768,-9.55012e-07,4.13717e-06,0.000699519,-0.000699337
0.0012117,0.00755941,0.00759585,-0.000580228,-0.00448525,-0.00115887,-1.16543e-06,1.38598e-05,0.000697462,-0.000697728
0.00118027,0.00755659,0.00759319,-0.00058172,-0.00449128,-0.0011589,-5.82344e-06,5.29351e-06,0.0007045,-0.00070478
0.0011942,0.00756048,0.00758708,-0.00058247,-0.0044998,-0.0011596,-5.09613e-06,5.91696e-06,0.000702773,-0.000702998
0.00122201,0.00757022,0.00758096,-0.00058493,-0.00451231,-0.00116071,-1.16111e-06,1.10329e-05,0.000704972,-0.000705032
0.00119171,0.00755383,0.00757263,-0.000586579,-0.00451144,-0.00116169,-3.70341e-06,2.30967e-06,0.000699613,-0.000699379
0.00118827,0.00756939,0.00756969,-0.000586709,-0.00451743,-0.00116257,7.676e-07,1.63593e-05,0.000703453,-0.000703343
0.00120492,0.007553,0.00756492,-0.000582874,-0.00452257,-0.00116031,-3.80755e-06,4.61975e-06,0.000698061,-0.000698115
0.00122833,0.00756316,0.00756531,-0.000581177,-0.00453771,-0.00116094,-1.82416e-05,7.8762e-06,0.000705187,-0.000705552
0.00122084,0.00755468,0.00755838,-0.000582705,-0.00454312,-0.00116199,1.58647e-06,3.36622e-06,0.000699429,-0.000699401
0.00122092,0.00757111,0.00755186,-0.000582227,-0.00454134,-0.00116166,-7.12959e-06,1.77486e-05,0.000698206,-0.000698081
0.00124938,0.00756765,0.00754865,-0.000584445,-0.00454824,-0.00116209,-3.25701e-06,7.06408e-06,0.000700558,-0.000700552
0.00121719,0.00755846,0.00755087,-0.000583891,-0.00455629,-0.00116262,-1.19053e-05,1.87329e-05,0.000704275,-0.000704437
0.00123363,0.00755149,0.00754695,-0.000583868,-0.00456079,-0.00116349,1.42331e-06,9.40596e-06,0.000697064,-0.000696981
0.00125467,0.00756153,0.0075466,-0.000585608,-0.00456283,-0.00116377,-3.94301e-06,8.28393e-06,0.000704797,-0.000704894
0.00125755,0.00756495,0.00754649,-0.000583427,-0.00456235,-0.00116293,-8.36803e-06,-7.63447e-07,0.000698993,-0.000699307
0.00123994,0.00754543,0.00754334,-0.000586652,-0.00455976,-0.00116275,-1.5599e-06,2.27906e-05,0.000700163,-0.000699935
0.00119243,0.00757829,0.007533,-0.000586978,-0.00455687,-0.0011638,-4.26988e-06,-1.47277e-06,0.000700692,-0.000701044
0.00118475,0.00756167,0.00753888,-0.000585516,-0.00455813,-0.00116331,-2.25569e-05,2.13473e-05,0.000703253,-0.000703523
0.00119598,0.00755536,0.00753158,-0.000587221,-0.0045531,-0.00116391,2.75663e-06,1.87499e-06,0.000698862,-0.000698573
0.00121509,0.00756614,0.00753426,-0.00058768,-0.0045494,-0.00116405,-3.31719e-06,3.35128e-05,0.000701079,-0.000700918
0.00114799,0.00754482,0.00754761,-0.000590209,-0.00453423,-0.00116463,-2.02375e-06,1.10498e-05,0.000694443,-0.000694831
0.00116983,0.00754706,0.00755218,-0.000588468,-0.00453285,-0.00116315,-2.59712e-06,2.20592e-05,0.000698071,-0.000698307
0.00116971,0.00756883,0.00754412,-0.000589135,-0.0045291,-0.00116406,-6.8772e-06,7.27503e-06,0.000706797,-0.000706922
0.00118742,0.00755421,0.00754533,-0.000590678,-0.00452889,-0.00116404,-3.61637e-06,1.70297e-06,0.000698375,-0.00069837
0.00114754,0.00758194,0.00754098,-0.000590903,-0.00453214,-0.00116401,-7.97458e-06,1.05992e-05,0.000706935,-0.000707178
0.00119427,0.00756862,0.00754131,-0.000592571,-0.00453332,-0.00116548,-8.09274e-06,3.64838e-06,0.000698268,-0.000698172
0.0012126,0.00760178,0.00753717,-0.000594136,-0.0045315,-0.00116641,-1.01791e-06,-5.0729e-07,0.000702561,-0.000702292
0.00121666,0.00756758,0.00755634,-0.000594611,-0.00451281,-0.00116633,1.49777e-06,2.22221e-05,0.000698538,-0.000698875
0.00125769,0.0075563,0.0075534,-0.000595073,-0.00450463,-0.00116656,-1.92354e-05,6.22343e-06,0.000700147,-0.000699779
0.00121632,0.00757075,0.00755356,-0.000593421,-0.00451172,-0.00116697,-8.48791e-06,5.13301e-06,0.000703798,-0.000704004
0.00127366,0.00756561,0.00754887,-0.000595217,-0.00451647,-0.001168,-8.87145e-07,2.51765e-06,0.000698942,-0.000698956
0.00125475,0.00757752,0.00754822,-0.000592335,-0.00452604,-0.00116728,-1.18327e-05,2.12565e-05,0.000699215,-0.000699205
0.00126697,0.00757992,0.00754694,-0.000591952,-0.00453024,-0.00116552,-4.01196e-06,2.01078e-06,0.00070064,-0.000700492
0.00124804,0.00756977,0.00755252,-0.000592762,-0.00453975,-0.00116586,-6.65932e-07,8.51178e-07,0.000699353,-0.000699761
0.00123455,0.00757543,0.00754711,-0.00059264,-0.00454073,-0.00116563,-9.74877e-06,3.06562e-05,0.000700771,-0.000700718
0.00120037,0.00756672,0.00754753,-0.000595479,-0.00453959,-0.00116637,1.06614e-06,6.87805e-06,0.000706643,-0.000706674
0.00120075,0.00757117,0.00754464,-0.000595411,-0.00453292,-0.00116698,3.2325e-07,1.09309e-05,0.000701918,-0.000702108
0.00120652,0.00756315,0.00754931,-0.000595979,-0.00452602,-0.00116653,-5.3244e-06,3.61996e-06,0.000704703,-0.000704732
0.00121615,0.00755454,0.0075498,-0.000595161,-0.00453327,-0.00116558,6.46808e-07,2.50685e-05,0.000704296,-0.000704634
0.00121276,0.00755839,0.00754797,-0.000594905,-0.00454397,-0.00116502,1.80125e-07,1.14013e-06,0.000704346,-0.000704651
0.00118905,0.00756252,0.00754506,-0.000594891,-0.00455623,-0.00116608,-1.0316e-05,1.92656e-05,0.000704296,-0.000704654
0.00120183,0.00756676,0.00754287,-0.00059303,-0.00456807,-0.00116467,4.82362e-07,-1.78951e-07,0.000705236,-0.000705563
0.00119162,0.00757451,0.00753875,-0.000591159,-0.00457435,-0.00116477,-1.41948e-05,2.1645e-06,0.000700049,-0.000700441
0.00120337,0.00757136,0.00753605,-0.00059312,-0.00457751,-0.00116595,1.34318e-06,6.09229e-06,0.000705812,-0.000706042
0.00119542,0.00756663,0.00753533,-0.000592934,-0.00458044,-0.00116408,-4.16437e-06,2.66069e-05,0.000700156,-0.000700591
0.00120762,0.00756239,0.00752465,-0.000594769,-0.00456651,-0.00116551,3.39412e-10,-9.25801e-07,0.000699849,-0.000699718
0.00122777,0.00756164,0.00752726,-0.000595922,-0.00456341,-0.00116658,-1.25123e-05,3.02507e-05,0.000695183,-0.00069507
0.00117476,0.00756017,0.00753445,-0.000592343,-0.0045667,-0.00116629,8.17142e-07,1.50104e-06,0.000704839,-0.000704708
0.00121924,0.00754357,0.00754362,-0.000589413,-0.00454115,-0.00116482,-1.36855e-05,-7.93559e-07,0.000687896,-0.000687808
0.00116476,0.00754171,0.00755264,-0.000587151,-0.0045368,-0.00116454,-3.24758e-06,3.64664e-06,0.000704695,-0.000704881
0.00122868,0.00753736,0.00754946,-0.000588081,-0.00452865,-0.00116462,-1.37549e-05,-3.94114e-06,0.000698095,-0.000697925
0.00117228,0.00754796,0.00754554,-0.000590591,-0.00453167,-0.00116524,-4.42212e-06,7.37456e-07,0.000700666,-0.000700912
0.00118976,0.00755102,0.00754485,-0.000591535,-0.00453521,-0.00116651,-4.72326e-06,2.8665e-05,0.000699439,-0.000699813
0.00120357,0.00757258,0.00753968,-0.000592768,-0.0045297,-0.00116724,-1.02135e-06,6.25388e-07,0.000703934,-0.000703434
0.00121146,0.00757766,0.00755004,-0.000591564,-0.00451791,-0.00116655,-9.97653e-06,1.84548e-05,0.000701131,-0.000701499
0.00123713,0.0075752,0.00755522,-0.000592037,-0.00452023,-0.00116657,6.09339e-07,3.32814e-06,0.000705647,-0.000705813
0.00124438,0.00758069,0.00755033,-0.000594292,-0.00452307,-0.00116752,-2.0258e-07,2.75577e-06,0.00070104,-0.000701204
0.00125151,0.00760142,0.00754796,-0.00059532,-0.00451645,-0.00116706,-7.66769e-06,9.27218e-06,0.000703457,-0.000703179
0.00127887,0.00757574,0.00755555,-0.000595761,-0.00450135,-0.00116687,-2.11423e-06,2.40718e-05,0.000696398,-0.000696376
0.00126189,0.00758352,0.00756159,-0.000596059,-0.00448251,-0.0011673,6.94883e-08,2.72598e-07,0.000690605,-0.000690459
0.00121219,0.00757128,0.00757663,-0.000596,-0.00447018,-0.00116711,3.17506e-06,2.06878e-05,0.000698736,-0.000698791
0.00123421,0.00754332,0.00758268,-0.000597208,-0.00446038,-0.00116571,5.89158e-07,2.93935e-06,0.000695835,-0.000695638
0.00122797,0.0075543,0.00758571,-0.000595167,-0.00447048,-0.00116579,-1.49503e-05,2.01081e-05,0.000704126,-0.000704447
0.0012466,0.00758131,0.00757314,-0.000595416,-0.00447421,-0.00116665,-3.42541e-06,-1.821e-06,0.000699621,-0.000699437
0.00123127,0.0075634,0.00757592,-0.000594647,-0.00448768,-0.00116567,-1.25205e-05,1.7434e-05,0.000697102,-0.000697139
0.00124355,0.00757839,0.0075719,-0.000595731,-0.00450783,-0.00116515,6.9642e-07,4.06626e-06,0.000700399,-0.000700812
0.00121919,0.00759595,0.00756493,-0.000592079,-0.00451399,-0.00116419,-6.07517e-06,-6.70598e-07,0.000697777,-0.000697649
0.00124138,0.00758426,0.00756776,-0.000593681,-0.0045281,-0.00116329,-3.38944e-06,2.26422e-05,0.000706252,-0.000706367
0.0012463,0.00757462,0.00756451,-0.000593669,-0.00452854,-0.00116365,-1.85602e-07,6.0251e-06,0.000697632,-0.000697423
0.00120091,0.00757482,0.00756316,-0.000594018,-0.00453681,-0.00116416,9.43788e-08,1.84644e-05,0.000699594,-0.00069983
0.00119491,0.00757139,0.00756121,-0.00059429,-0.00453984,-0.00116478,-1.336e-06,-2.61265e-07,0.000705386,-0.000705477
0.0012018,0.00757211,0.00756525,-0.000594217,-0.00451904,-0.00116534,3.14419e-07,2.31934e-06,0.00069539,-0.000695487
0.0012125,0.0075309,0.0075719,-0.000592755,-0.00450441,-0.0011646,-7.15092e-06,2.76895e-05,0.000698305,-0.000698095
0.00121369,0.00753616,0.00757225,-0.000595783,-0.00450726,-0.00116476,6.2362e-07,1.11233e-06,0.0007042,-0.000704241
0.00121453,0.00752936,0.00756764,-0.000595977,-0.00451474,-0.00116554,-1.70295e-05,2.60576e-05,0.000695849,-0.000695822
0.00117921,0.00754194,0.00756382,-0.000598326,-0.00452668,-0.00116731,-1.31164e-06,5.17405e-06,0.000699291,-0.000699686
0.00119819,0.00755497,0.00756893,-0.000599182,-0.00451865,-0.00116759,-7.74153e-06,4.30245e-06,0.000700693,-0.000701052
0.00120086,0.00753029,0.00757464,-0.000598017,-0.00450611,-0.00116744,-8.18666e-06,1.45124e-05,0.000698177,-0.000697939
0.001209,0.00754918,0.00757949,-0.000598876,-0.00449477,-0.00116857,-7.12344e-06,2.45523e-06,0.000694159,-0.000694623
0.00121597,0.00754526,0.00758527,-0.000599053,-0.00449186,-0.00116843,-1.88408e-05,9.6677e-06,0.000703413,-0.000703581
0.00118479,0.00756427,0.00758639,-0.0005994,-0.00449869,-0.00116753,2.37416e-06,2.7727e-05,0.000704131,-0.000704351
0.00121522,0.00756521,0.00758272,-0.000600745,-0.00450134,-0.00116819,-1.38097e-07,-1.95302e-07,0.00069969,-0.000699642
0.00120396,0.0075913,0.00757741,-0.000602817,-0.0045137,-0.00116954,-4.95298e-07,7.02978e-06,0.000699599,-0.000699932
0.00117144,0.00761785,0.00757092,-0.000603265,-0.00452556,-0.00116977,-1.10437e-05,1.88628e-07,0.000702231,-0.000702593
0.00118738,0.00761024,0.00757569,-0.000603734,-0.00453276,-0.00116975,-9.72634e-06,7.41533e-06,0.000707691,-0.000707913
0.00119733,0.00760368,0.00757727,-0.000604351,-0.00453915,-0.00116948,1.5441e-07,2.56892e-05,0.000704458,-0.000704679
0.00122698,0.00760234,0.00757647,-0.00060335,-0.00455002,-0.00116827,2.73679e-07,5.05608e-06,0.000704817,-0.000705101
0.00120847,0.00759001,0.0075717,-0.000604424,-0.00455534,-0.00116893,-2.1052e-06,1.21932e-05,0.000699749,-0.000699767
0.00123082,0.00760218,0.00756636,-0.000603697,-0.00455646,-0.00116913,-7.89706e-07,1.33507e-05,0.000704687,-0.000704421
0.00125324,0.00758104,0.00757075,-0.000602693,-0.00454975,-0.00116572,-8.5473e-06,-3.22686e-06,0.000705469,-0.000705673
0.00125133,0.00756661,0.00757095,-0.000602597,-0.00454292,-0.00116272,-9.94378e-06,-1.43782e-07,0.000700792,-0.000700461
0.00126798,0.00754604,0.00758053,-0.000599902,-0.0045231,-0.00116041,-6.25113e-06,2.85513e-05,0.000688949,-0.000688692
0.00121273,0.00751066,0.00758934,-0.000601101,-0.00451967,-0.00115994,2.85846e-07,2.254e-07,0.000704235,-0.000704297
0.00126242,0.00751781,0.00758614,-0.000599363,-0.00451799,-0.00115848,-7.16968e-07,1.2129e-05,0.000701255,-0.00070129
0.00124805,0.0075102,0.00757704,-0.000600113,-0.00451239,-0.00115899,-7.71006e-06,-3.77204e-07,0.000698548,-0.000698349
0.00121568,0.0075289,0.00757226,-0.000602689,-0.00451932,-0.00116077,-1.09267e-05,3.54139e-07,0.000697209,-0.000697581
0.001206,0.00754457,0.00756991,-0.000604249,-0.00452841,-0.00116177,-1.75886e-06,1.99131e-05,0.000704754,-0.000705069
0.00118509,0.00756265,0.00756501,-0.0006051,-0.00453964,-0.00116197,-7.86063e-06,2.76179e-06,0.00070495,-0.000705333
0.00118123,0.00757747,0.00756306,-0.000604911,-0.00455024,-0.00116305,-1.06311e-05,2.5073e-06,0.00070502,-0.000705335
0.0011656,0.00759089,0.00756249,-0.000605237,-0.00455585,-0.00116357,-8.92748e-07,2.20693e-05,0.000707997,-0.000708043
0.00118931,0.00759259,0.00755905,-0.000607334,-0.00455321,-0.00116486,-3.39383e-06,1.43589e-06,0.000701376,-0.000701706
0.00116264,0.00759539,0.00755761,-0.000607438,-0.00454801,-0.00116489,-2.09868e-06,6.05413e-06,0.00070659,-0.00070683
0.00116999,0.00759775,0.00755678,-0.000607515,-0.0045436,-0.00116575,8.64198e-07,5.158e-06,0.000708315,-0.000708364
0.00116576,0.00759196,0.00755438,-0.000607727,-0.00454634,-0.00116389,4.27432e-07,3.54575e-05,0.000705356,-0.000705404
0.00120796,0.0075934,0.00754981,-0.000609584,-0.00454823,-0.00116549,-1.05259e-05,6.97428e-07,0.00070819,-0.000708072
0.00119538,0.00756823,0.00755296,-0.000605802,-0.00454603,-0.00116465,-7.95113e-06,5.54867e-06,0.000697749,-0.000697721
0.00120582,0.00756382,0.00755604,-0.000604877,-0.00455045,-0.00116308,-1.28088e-05,1.09646e-05,0.000702441,-0.000702675
0.00120622,0.00756769,0.00755148,-0.000604099,-0.00455796,-0.00116119,1.42461e-06,9.90966e-06,0.000698504,-0.000698882
0.00125178,0.00755825,0.00755498,-0.000605706,-0.00455721,-0.00116032,-1.66673e-06,2.62516e-05,0.000702459,-0.000702322
0.00124749,0.0075436,0.00756588,-0.000606174,-0.00453439,-0.00116025,-1.18028e-06,-4.42213e-07,0.000691892,-0.000692004
0.00121896,0.00752393,0.00757851,-0.000606301,-0.00451198,-0.00116119,5.45478e-08,2.11152e-06,0.000690164,-0.000690188
0.00123422,0.00750539,0.00759059,-0.00060653,-0.00448964,-0.0011622,1.49289e-06,6.10843e-07,0.000691605,-0.000691613
0.00122397,0.00750148,0.00760247,-0.000606526,-0.00446706,-0.00116296,1.15705e-07,-3.32774e-07,0.000691864,-0.000691849
0.00124523,0.00750389,0.00761396,-0.000606544,-0.00444445,-0.0011634,9.92793e-07,1.06563e-06,0.000691579,-0.000691561
0.0012155,0.0075151,0.00762414,-0.000606883,-0.00442169,-0.00116397,-3.46162e-07,1.30939e-06,0.000691962,-0.000691939
0.00122976,0.00752233,0.00763638,-0.000607104,-0.00439915,-0.00116497,3.92488e-07,4.11115e-06,0.000691244,-0.000691264
0.00125271,0.00754488,0.00764777,-0.000607173,-0.00437625,-0.00116588,-1.16491e-06,1.99496e-06,0.000692423,-0.00069242
0.00126243,0.00756285,0.00765672,-0.000604522,-0.00436041,-0.00116489,-8.53256e-06,1.87422e-05,0.000694716,-0.000694525
0.00125189,0.00758481,0.00766709,-0.000604257,-0.00433744,-0.0011651,5.01231e-07,2.00258e-06,0.000693516,-0.000693545
0.0012144,0.00760323,0.00768024,-0.000604365,-0.0043143,-0.00116567,-1.8361e-06,-1.53218e-06,0.000693096,-0.000693092
0.00123214,0.00760721,0.0076929,-0.000604601,-0.00429159,-0.00116641,2.76367e-07,2.7065e-06,0.000694745,-0.000694757
0.00125295,0.00761636,0.00770427,-0.000604378,-0.00426854,-0.00116685,3.47583e-07,1.14421e-06,0.0006944,-0.00069441
0.00121936,0.0076208,0.00771444,-0.000604501,-0.00424532,-0.00116744,-1.78955e-06,9.63249e-07,0.000693702,-0.000693723
0.00125014,0.00761853,0.00772526,-0.000604606,-0.00422204,-0.00116766,-1.29879e-06,-3.81496e-07,0.000693488,-0.000693505
0.00121444,0.00761498,0.00773587,-0.000604551,-0.00419871,-0.00116834,-3.21023e-06,-1.59165e-07,0.00069414,-0.000694128
0.0012377,0.00759465,0.00774127,-0.000601234,-0.00419171,-0.00116768,-7.09188e-06,2.15419e-05,0.000698139,-0.000697969
0.00120846,0.00760433,0.00773958,-0.000603411,-0.00422797,-0.00116884,6.89613e-07,5.65167e-06,0.000703639,-0.000703754
0.00122141,0.00762236,0.00773636,-0.000601095,-0.00428337,-0.00116895,9.18925e-07,1.58968e-05,0.000698061,-0.000698346
0.00118104,0.00761897,0.00773506,-0.000600006,-0.00430379,-0.00116777,1.83828e-07,3.82918e-06,0.000703796,-0.000703897
0.00121085,0.007618,0.00772686,-0.000597281,-0.0043315,-0.00116753,-6.62326e-06,4.60451e-06,0.000702365,-0.00070278
0.00118429,0.00760876,0.00772156,-0.000599198,-0.00436472,-0.00116798,-1.6745e-05,1.00757e-06,0.000702593,-0.000702931
0.00116914,0.00759486,0.00771691,-0.000601056,-0.00440337,-0.00116942,-9.4009e-07,6.91243e-06,0.000706514,-0.000706671
0.0011936,0.00757653,0.00770627,-0.000601861,-0.00443481,-0.00116878,-8.49061e-06,2.47565e-06,0.00070042,-0.000700448
0.00118499,0.00756841,0.0076973,-0.00060224,-0.00446731,-0.00116955,-8.64496e-06,1.1904e-05,0.000700656,-0.000701071
0.00120309,0.00756375,0.00768473,-0.000602522,-0.00448682,-0.00116947,4.59581e-07,8.33585e-06,0.000701223,-0.000701621
0.0011735,0.00753763,0.00768039,-0.000602175,-0.00449884,-0.00116943,-1.9372e-05,6.55175e-06,0.000706432,-0.000706641
0.00121292,0.00752427,0.00767122,-0.000604046,-0.00451024,-0.00116896,1.28688e-07,5.19958e-06,0.000704678,-0.000704561
0.001233,0.00751052,0.0076601,-0.000603767,-0.00451728,-0.00116853,-2.35692e-06,1.05132e-05,0.000698146,-0.000698153
0.00116887,0.00751435,0.00764789,-0.000605152,-0.00452477,-0.00116965,-1.73484e-06,3.01585e-07,0.000700131,-0.000700268
0.00123005,0.00750652,0.00764289,-0.000605717,-0.00453277,-0.00116921,-5.03144e-06,8.0987e-06,0.000696422,-0.000696708
0.00120233,0.00751191,0.00763287,-0.000606818,-0.00453901,-0.00116868,-1.93599e-06,3.25779e-06,0.000704001,-0.000704299
0.00118456,0.00752718,0.00762564,-0.000604459,-0.00454505,-0.0011686,-9.3241e-06,1.52938e-05,0.000703012,-0.000703321
0.00124926,0.00752722,0.00761596,-0.000603081,-0.00454878,-0.00116696,-1.08268e-06,2.00399e-06,0.000698646,-0.000698618
0.00122079,0.00755041,0.00760856,-0.000605172,-0.00455358,-0.00116824,1.50993e-06,1.75074e-05,0.000705422,-0.000705256
0.00120836,0.00756963,0.00760025,-0.000604556,-0.00455329,-0.00116812,-3.32286e-06,2.05594e-07,0.000698754,-0.000698961
0.00124556,0.00758937,0.007593,-0.000604812,-0.00454801,-0.00116773,-1.29137e-06,5.25072e-06,0.000707568,-0.000707648
0.00121918,0.00756603,0.00759688,-0.000605851,-0.00453955,-0.00116667,1.82795e-06,2.50753e-05,0.000696447,-0.000696332
0.00121567,0.00758742,0.00759737,-0.000604672,-0.00453741,-0.00116525,8.02528e-08,4.07962e-06,0.000699649,-0.000699548
0.0012034,0.00758565,0.00760593,-0.000604265,-0.00452634,-0.0011647,-6.6457e-06,1.29492e-05,0.000699101,-0.000699501
0.00121562,0.00758049,0.00761095,-0.000599745,-0.00452423,-0.0011631,-5.63402e-06,-1.39466e-06,0.000702702,-0.000702762
0.00118334,0.00756731,0.00761175,-0.000600006,-0.00452514,-0.00116353,3.86382e-07,2.69248e-05,0.000703821,-0.000704011
0.00120701,0.00757527,0.00760767,-0.000600107,-0.00453279,-0.0011645,-4.10556e-06,3.71585e-06,0.000706015,-0.00070612
0.00118296,0.00755706,0.00761182,-0.000601444,-0.00452719,-0.00116446,-6.48781e-07,2.67823e-05,0.000696774,-0.000696751
0.00119959,0.00757578,0.0076051,-0.000601782,-0.00452227,-0.00116443,4.38916e-07,5.62411e-06,0.000698486,-0.000698487
0.00123062,0.00755825,0.00760986,-0.00060168,-0.00451593,-0.00116415,-7.82884e-06,9.63755e-06,0.00069815,-0.000698044
0.00117047,0.00756726,0.00760172,-0.000603792,-0.00450935,-0.00116542,-1.73573e-06,-1.09905e-07,0.000702899,-0.000702973
0.0011976,0.00755577,0.0076124,-0.000604883,-0.00449081,-0.00116571,-2.24591e-06,1.56179e-05,0.000692113,-0.000692602
0.00119967,0.0075637,0.00760922,-0.000603733,-0.00449157,-0.00116475,-1.40921e-05,2.37909e-07,0.000699852,-0.000700001
0.00121197,0.00756051,0.00760728,-0.000600921,-0.0044949,-0.00116321,-1.18196e-05,1.29427e-05,0.000698391,-0.000698409
0.00121095,0.00756449,0.00760529,-0.00060168,-0.00451295,-0.00116314,-1.52285e-06,-1.01813e-06,0.000699744,-0.000700156
0.00122862,0.00757357,0.00760096,-0.000601761,-0.00452832,-0.00116389,-1.08836e-05,1.11881e-05,0.000698209,-0.00069862
0.00124849,0.0075804,0.0075978,-0.000602008,-0.00454133,-0.00116481,-1.9363e-06,1.55627e-06,0.000704563,-0.000704919
0.00126529,0.00757578,0.00759214,-0.000602134,-0.00454392,-0.00116516,5.85955e-07,2.53337e-05,0.000698776,-0.000698637
0.00121188,0.00757848,0.00758885,-0.000602693,-0.00455172,-0.00116541,1.16061e-06,-6.06368e-07,0.000700089,-0.00070033
0.00119319,0.00757641,0.00758673,-0.000602891,-0.0045525,-0.00116576,1.70006e-06,1.85118e-05,0.000705759,-0.000705702
0.00117345,0.0075734,0.00758176,-0.000603949,-0.00455757,-0.00116608,2.80162e-06,3.03726e-06,0.000705316,-0.000705462
0.00119284,0.00757057,0.00758031,-0.000601681,-0.00456564,-0.00116559,1.50947e-06,1.05012e-05,0.000704804,-0.000705035
0.00120445,0.00756602,0.00756911,-0.000603673,-0.00456152,-0.00116715,-1.28497e-06,5.03852e-07,0.000700474,-0.000700753
0.00116833,0.00754719,0.00757831,-0.000603883,-0.00454092,-0.00116739,1.15334e-06,1.854e-05,0.000691883,-0.000691893
0.00118206,0.00753408,0.0075801,-0.000603357,-0.00453682,-0.00116612,-1.16099e-05,1.84564e-05,0.00069961,-0.000699835
0.00116037,0.00753668,0.00758272,-0.000602866,-0.00453487,-0.00116629,-1.81585e-05,4.44379e-06,0.000701906,-0.000702112
0.00118476,0.00753441,0.00757219,-0.000604935,-0.00452852,-0.0011671,-4.60967e-06,-2.03978e-06,0.000700307,-0.000700411
0.00119523,0.00753854,0.00757187,-0.000606111,-0.00452528,-0.00116704,-3.16897e-06,2.54691e-05,0.000702823,-0.000702899
0.00122688,0.00755041,0.00757002,-0.000604634,-0.00453246,-0.00116644,3.10637e-07,1.67667e-07,0.000697297,-0.000697649
0.00125685,0.00755838,0.00756715,-0.00060536,-0.0045409,-0.0011662,-8.61859e-06,2.8338e-05,0.000705349,-0.000705665
0.00121904,0.00756155,0.00756122,-0.000605048,-0.00454178,-0.00116675,-2.18698e-07,3.98366e-06,0.00069753,-0.000697377
0.00123762,0.00758717,0.00755913,-0.000606209,-0.00453378,-0.00116713,-1.238e-06,3.01074e-06,0.000699651,-0.000699475
0.00119155,0.00755997,0.00757351,-0.000605943,-0.00451629,-0.00116774,-5.60455e-07,1.69064e-05,0.000692484,-0.00069297
0.00126477,0.00756035,0.00757302,-0.000605384,-0.00450352,-0.00116612,-2.54246e-06,6.39436e-06,0.000702323,-0.000702066
0.00121003,0.00756193,0.00757846,-0.0006064,-0.00450529,-0.00116622,-7.35112e-06,2.25792e-05,0.000695128,-0.000695564
0.00124739,0.0075586,0.00758079,-0.000605725,-0.00450629,-0.00116608,-7.81508e-07,1.03402e-05,0.000696759,-0.000696615
0.00120957,0.00758653,0.00757497,-0.000604994,-0.00451664,-0.00116657,-5.17934e-06,-1.19808e-06,0.000697547,-0.000697357
0.00120047,0.00758043,0.00757542,-0.000607627,-0.00452974,-0.0011684,-1.17477e-05,2.65517e-05,0.000706197,-0.000706468
0.00117252,0.0076056,0.00756686,-0.000608268,-0.00453366,-0.00116903,-1.05873e-05,1.01393e-05,0.000697398,-0.000697729
0.00120896,0.00758775,0.0075672,-0.000610048,-0.00452838,-0.00117078,-6.7839e-06,9.66504e-07,0.000708881,-0.000708716
0.00117265,0.00758102,0.00756344,-0.00061037,-0.00452818,-0.00117107,-4.64723e-06,9.52362e-06,0.000700902,-0.000701188
0.00118383,0.00757721,0.00756613,-0.000606684,-0.00453157,-0.00116935,9.91563e-07,1.6017e-05,0.00070198,-0.000702203
0.0011849,0.00757481,0.00756245,-0.000607448,-0.00454309,-0.00116901,1.59507e-07,1.36066e-06,0.000704319,-0.000704594
0.00117446,0.00757132,0.00755857,-0.000609178,-0.004553,-0.00116894,1.56043e-06,1.47848e-05,0.000704728,-0.000705078
0.00116298,0.00757421,0.00755419,-0.000606534,-0.00456528,-0.00116776,-7.29859e-06,1.23419e-07,0.00070091,-0.000701338
0.0012384,0.00755588,0.00754931,-0.000607853,-0.00456314,-0.00116758,-7.71744e-07,3.97404e-06,0.0007002,-0.000700124
0.00123513,0.00754818,0.00754841,-0.000608385,-0.00456301,-0.00116753,-1.09533e-05,2.26847e-05,0.000696045,-0.000695752
0.00118638,0.00755308,0.0075479,-0.000605195,-0.00457041,-0.0011664,2.52386e-06,4.43931e-06,0.000703493,-0.000703708
0.00120556,0.00754077,0.00754253,-0.000605945,-0.0045638,-0.00116653,-3.70149e-06,1.66662e-05,0.00069935,-0.000699261
0.00122616,0.00755483,0.0075367,-0.000605507,-0.00456156,-0.00116659,-1.53541e-05,-1.40465e-07,0.000696698,-0.0006966
0.00123625,0.00755259,0.0075351,-0.000604487,-0.0045726,-0.00116571,-9.28617e-06,-1.17841e-06,0.00070074,-0.000700927
0.00123409,0.00754537,0.00753525,-0.00060449,-0.00457485,-0.00116572,3.82828e-07,4.31441e-06,0.000700838,-0.000701046
0.00118592,0.00755902,0.00752786,-0.000605764,-0.00456885,-0.00116667,8.06662e-07,1.07302e-05,0.00070486,-0.000704909
0.001205,0.00755274,0.00753228,-0.000605683,-0.00456601,-0.00116687,-4.63705e-06,9.30165e-06,0.000702278,-0.000702443
0.00119532,0.00757661,0.00752557,-0.000603351,-0.00456737,-0.00116656,-1.11115e-05,1.98853e-05,0.000697771,-0.00069798
0.0012306,0.00756115,0.0075321,-0.000603634,-0.00456832,-0.00116575,-4.43587e-06,1.40609e-05,0.000704904,-0.00070508
0.0011942,0.00756425,0.00753259,-0.000603837,-0.00456367,-0.00116614,4.05389e-07,2.58591e-05,0.000704747,-0.000704675
0.00119401,0.00757134,0.00752944,-0.000601446,-0.00456658,-0.00116474,-2.0064e-06,7.91773e-06,0.000706897,-0.000706782
0.00118377,0.00758415,0.00752382,-0.000603647,-0.00456552,-0.00116538,-9.34522e-06,1.46355e-07,0.000703025,-0.000703426
0.00120103,0.0075878,0.0075233,-0.00060388,-0.00455828,-0.00116577,-3.33477e-06,4.03887e-06,0.000706861,-0.000707137
0.00119447,0.00757924,0.00752808,-0.000604652,-0.00455505,-0.00116615,-1.49741e-06,2.14124e-05,0.00070667,-0.000706648
0.00119674,0.00757532,0.00753177,-0.000605719,-0.004546,-0.00116608,-8.37327e-06,7.51277e-06,0.000696101,-0.000696092
0.00117998,0.00755629,0.00754138,-0.000607503,-0.0045416,-0.00116634,-1.22844e-05,2.11455e-05,0.000699467,-0.000699726
0.00117163,0.00757725,0.00754035,-0.000606848,-0.00453972,-0.00116568,-1.67632e-06,3.44334e-07,0.000701756,-0.000701995
0.00119248,0.00755887,0.00754909,-0.000605794,-0.0045389,-0.00116486,-4.01701e-06,2.29929e-05,0.000703027,-0.000703033
0.00120725,0.00754806,0.00755868,-0.000605908,-0.00452454,-0.00116499,2.23049e-06,2.1645e-05,0.000700212,-0.000700456
0.00115533,0.00755732,0.00755093,-0.000608219,-0.00451535,-0.00116543,-7.56365e-06,6.93351e-06,0.000701266,-0.000701479
0.00117395,0.00755698,0.00755268,-0.000609409,-0.00451636,-0.00116624,-5.32055e-07,1.965e-05,0.000697142,-0.000697551
0.00121578,0.00756793,0.00755208,-0.000609487,-0.00452554,-0.00116718,-1.56742e-06,1.68369e-06,0.000703842,-0.000704147
0.00119166,0.00757763,0.00755095,-0.000610603,-0.00452805,-0.00116736,8.47842e-07,2.82854e-05,0.000705104,-0.000705102
0.00119646,0.00758485,0.0075424,-0.000609068,-0.00453003,-0.00116675,-1.05401e-05,4.74323e-06,0.000702027,-0.000701917
0.00116953,0.00758371,0.0075466,-0.000607639,-0.00454335,-0.00116604,-1.1671e-06,2.18379e-05,0.000705439,-0.000705717
0.0012151,0.00760255,0.00753838,-0.000607694,-0.00453595,-0.0011664,-8.85624e-06,-6.7397e-06,0.000701182,-0.000700887
0.00121328,0.0075798,0.00754717,-0.000604205,-0.00453469,-0.00116387,-1.4862e-05,-3.24263e-07,0.000693097,-0.000693553
0.00123176,0.00756877,0.00754898,-0.0006052,-0.0045301,-0.00116461,-3.61631e-06,7.87513e-06,0.00070648,-0.000706498
0.00122841,0.0075774,0.00754666,-0.00060395,-0.00452957,-0.00116398,-8.90898e-06,2.1965e-06,0.000704944,-0.000705136
0.00124605,0.0075594,0.00754513,-0.000605905,-0.00452811,-0.00116471,8.91996e-07,-1.77373e-06,0.000700283,-0.000700618
0.0011922,0.00755555,0.00754344,-0.000606771,-0.00453002,-0.00116489,-1.72781e-05,2.89536e-05,0.000698363,-0.000698743
0.00120563,0.00755289,0.00754763,-0.000607012,-0.00452491,-0.00116565,8.95327e-07,7.9278e-06,0.000695648,-0.000696019
0.00122667,0.00755754,0.00754874,-0.000605859,-0.00451861,-0.00116455,-1.63516e-06,-1.33744e-07,0.000701512,-0.000701312
0.00117422,0.00753285,0.00756118,-0.000605573,-0.00450171,-0.0011641,-1.67023e-06,1.60224e-05,0.000691911,-0.000692359
0.0012179,0.0075328,0.00756873,-0.000602838,-0.00449962,-0.00116283,-5.9239e-06,1.06007e-05,0.000704401,-0.000704519
0.00118749,0.0075386,0.00756667,-0.000604621,-0.00450458,-0.00116389,6.74531e-07,4.97616e-07,0.000706065,-0.000706123
0.00122248,0.00755116,0.00755968,-0.000607445,-0.00450649,-0.00116315,-2.38934e-06,1.22003e-05,0.000704637,-0.000704675
0.00116783,0.00756729,0.00755782,-0.000607605,-0.00450675,-0.00116333,-6.07722e-07,1.8027e-05,0.000703098,-0.000702887
0.00124698,0.00756593,0.00755761,-0.000606582,-0.00450973,-0.00116243,-2.47206e-07,-4.02692e-07,0.000697843,-0.000697822
0.0011927,0.00757815,0.00755818,-0.000606938,-0.0045235,-0.00116243,2.62507e-08,2.14099e-05,0.00069934,-0.000699777
0.00122078,0.00758976,0.00755584,-0.000606855,-0.00453388,-0.00116291,1.98103e-06,1.24247e-06,0.000699201,-0.000699661
0.00124123,0.00759435,0.0075549,-0.00060852,-0.00453737,-0.0011637,-2.15148e-06,9.26935e-06,0.000705844,-0.000706038
0.00125639,0.00760931,0.00755377,-0.000606115,-0.00453934,-0.00116325,-7.51668e-06,1.26218e-05,0.00070459,-0.000704892
0.001217,0.00760847,0.00755211,-0.000603846,-0.00454353,-0.00116191,-1.97856e-06,4.89804e-06,0.000708035,-0.000708268
0.00122952,0.00756982,0.00755768,-0.000603726,-0.00453817,-0.00116205,-3.76875e-06,7.50855e-06,0.000698821,-0.000698787
0.0012267,0.00757726,0.00755759,-0.000604416,-0.00454236,-0.0011619,1.10379e-06,1.81277e-05,0.000705665,-0.00070568
0.00121365,0.00757361,0.00755352,-0.000602363,-0.00455532,-0.00116108,1.18355e-06,1.11757e-05,0.000700768,-0.000701186
0.00124656,0.0075692,0.007548,-0.000605365,-0.00455911,-0.00116228,-9.37244e-07,1.31033e-05,0.000708342,-0.000708298
0.00120642,0.00755758,0.00754594,-0.000606228,-0.00456092,-0.00116311,-4.22724e-07,2.43745e-05,0.000704779,-0.00070493
0.00119787,0.00755747,0.0075343,-0.000606375,-0.00455096,-0.00116399,1.14491e-07,4.19961e-06,0.000700568,-0.000700462
0.00119112,0.00753653,0.00754275,-0.000606333,-0.00455047,-0.00116483,-8.58721e-06,6.97652e-06,0.00070168,-0.000701608
0.00117857,0.00752686,0.00755207,-0.000605648,-0.00454356,-0.00116406,1.94272e-06,1.92554e-05,0.000702289,-0.000702402
0.00118952,0.0075369,0.00754776,-0.000607235,-0.00453899,-0.00116551,-1.03168e-05,-8.51312e-07,0.000705287,-0.000705204
0.00117979,0.00753438,0.00755623,-0.000607294,-0.00451648,-0.00116571,-1.69024e-06,1.99966e-06,0.000692027,-0.000692132
0.00121198,0.00752091,0.00757014,-0.00060816,-0.00449745,-0.00116709,7.84513e-07,1.168e-05,0.000696732,-0.000697046
0.00121829,0.00751993,0.0075767,-0.000608813,-0.00449107,-0.00116688,-9.85475e-06,7.28321e-06,0.000703857,-0.000703733
0.00120003,0.0075365,0.0075757,-0.000606056,-0.00450021,-0.00116663,-1.40601e-05,7.4886e-06,0.000704346,-0.000704713
0.00121648,0.00756766,0.00756495,-0.00060772,-0.00450237,-0.00116713,-5.05708e-06,8.02244e-06,0.000700741,-0.000700575
0.001242,0.00759055,0.00756626,-0.000608326,-0.00451667,-0.00116574,-1.59059e-05,1.66357e-05,0.00070054,-0.000700987
0.00126271,0.00759233,0.00756118,-0.000610112,-0.00451287,-0.00116704,-1.56051e-06,1.50622e-06,0.000701768,-0.000701457
0.00120411,0.00760917,0.00756033,-0.000609993,-0.00451679,-0.00116692,-6.61159e-07,2.33227e-05,0.000697994,-0.000698262
0.00119184,0.00762584,0.00755742,-0.000610109,-0.00452186,-0.00116617,5.3258e-07,1.10619e-05,0.000705653,-0.000705809
0.00122133,0.00761485,0.0075635,-0.000611214,-0.00451958,-0.00116653,-3.71435e-06,9.25358e-06,0.000708074,-0.000708131
0.00124543,0.00761487,0.00755984,-0.000610941,-0.00451153,-0.00116583,-7.10718e-06,5.77329e-07,0.000700702,-0.000700516
0.00116857,0.00759814,0.00756432,-0.000611881,-0.00451543,-0.00116639,-2.33063e-06,1.01158e-05,0.000702031,-0.000702386
0.00118488,0.00758698,0.00756639,-0.000613385,-0.00451147,-0.00116639,-4.71175e-06,2.92675e-06,0.000705302,-0.000705475
0.00120295,0.00754625,0.00757594,-0.000610539,-0.00449584,-0.00116538,-3.6872e-06,3.48327e-05,0.000695027,-0.000695066
0.00117342,0.0075428,0.00757569,-0.000606618,-0.00450232,-0.001164,-3.03866e-06,6.23036e-06,0.000695498,-0.000695743
0.00117301,0.00753966,0.00757121,-0.000606825,-0.00451786,-0.001164,-1.40887e-05,9.50162e-07,0.00069823,-0.00069856
0.00122743,0.00754421,0.0075674,-0.000608014,-0.00453322,-0.00116484,-3.595e-06,2.31794e-06,0.000697632,-0.000697977
0.00120615,0.00754645,0.00756569,-0.000607569,-0.00454203,-0.00116453,-6.19692e-06,1.48862e-05,0.000705391,-0.000705564
0.00123847,0.00754165,0.00756452,-0.000605319,-0.00455129,-0.00116348,-6.37654e-06,4.87684e-06,0.000697585,-0.000698038
0.00122691,0.0075467,0.00756094,-0.000606649,-0.00455928,-0.00116499,-3.03481e-06,1.74649e-05,0.000704765,-0.000704905
0.00120372,0.00754245,0.00755414,-0.000606539,-0.00455716,-0.00116529,-2.38261e-06,1.54408e-06,0.000697984,-0.000697858
0.00123594,0.00756728,0.00755447,-0.000607309,-0.00454524,-0.00116559,-3.72693e-06,-2.16809e-07,0.000696278,-0.000696108
0.00121856,0.00753061,0.00756912,-0.000607623,-0.00452256,-0.00116592,-7.13135e-07,1.33278e-05,0.000691793,-0.00069185
0.00120578,0.00754691,0.00757643,-0.000609058,-0.00451565,-0.00116346,-7.7793e-07,4.56198e-06,0.000699381,-0.00069901
0.00119644,0.00754151,0.00759067,-0.000608759,-0.00449343,-0.00116399,-2.14141e-06,-3.74161e-07,0.000690865,-0.000690927
0.00120503,0.00752902,0.0076039,-0.000608857,-0.00447131,-0.00116457,-6.52081e-07,2.29831e-06,0.000691033,-0.000691068
0.00122375,0.00753019,0.00761425,-0.00060936,-0.00444858,-0.00116556,-6.72703e-08,1.1955e-06,0.000693241,-0.00069323
0.00124981,0.00753463,0.00762635,-0.000609625,-0.00442611,-0.00116622,-3.50209e-07,7.0692e-07,0.000691471,-0.00069149
0.00122822,0.0075418,0.00763764,-0.000609641,-0.00440335,-0.0011664,1.93767e-07,8.04889e-07,0.00069248,-0.00069251
0.00125407,0.00755611,0.00764771,-0.000609662,-0.0043804,-0.00116678,9.65072e-07,2.56056e-06,0.000692024,-0.000692027
0.00126972,0.00756491,0.00765931,-0.000609941,-0.00435775,-0.00116763,-4.01654e-06,1.81572e-06,0.000692265,-0.000692275
0.00124429,0.00757688,0.00767073,-0.000609983,-0.00433471,-0.00116799,-1.95885e-07,3.033e-06,0.000693978,-0.000693999
0.00124454,0.00758527,0.00768295,-0.000609772,-0.00431182,-0.00116864,-2.7155e-06,2.50012e-07,0.000694074,-0.000694071
0.00125982,0.0075938,0.00769494,-0.000609932,-0.00428882,-0.00116948,-1.16376e-06,3.62986e-07,0.000692937,-0.00069295
0.00127555,0.00759511,0.00770625,-0.000610189,-0.00426585,-0.00117046,1.16939e-07,-1.85318e-07,0.000693329,-0.000693345
0.0012286,0.00759924,0.00771749,-0.000610225,-0.00424271,-0.00117124,3.84276e-07,-6.23816e-08,0.000693725,-0.000693705
0.00126748,0.00759525,0.0077283,-0.000610442,-0.00421973,-0.00117218,1.09563e-07,4.14889e-07,0.000693526,-0.000693537
0.00121737,0.00759508,0.00773866,-0.000610458,-0.0041965,-0.00117276,4.01031e-07,-4.95543e-07,0.000692892,-0.000692907
0.00121555,0.00759041,0.00774712,-0.000610794,-0.00417323,-0.00117331,-5.21673e-07,1.67905e-06,0.000693479,-0.000693474
0.00122935,0.00758043,0.00775752,-0.000610932,-0.00415017,-0.00117404,1.45365e-06,5.29313e-07,0.000693448,-0.000693472
0.00124819,0.00757671,0.00776666,-0.000611043,-0.0041267,-0.00117486,-7.51087e-07,9.72323e-09,0.000693693,-0.000693679
0.00120524,0.00757097,0.00777568,-0.000610992,-0.00410387,-0.00117522,-3.41552e-06,-7.72458e-07,0.000692438,-0.000692426
0.0012122,0.00756025,0.00778492,-0.000611295,-0.0040806,-0.00117631,-1.88411e-07,1.78626e-06,0.000692511,-0.000692526
0.00120872,0.00755503,0.00779309,-0.00061157,-0.00405755,-0.00117664,-7.59379e-08,1.84702e-06,0.00069151,-0.000691534
0.00122196,0.00755106,0.00780044,-0.000611741,-0.0040342,-0.00117749,6.08963e-07,1.44254e-06,0.000693734,-0.000693709
0.00123845,0.00755235,0.00780852,-0.000611904,-0.00401136,-0.00117792,-4.481e-06,-7.94676e-07,0.000693003,-0.000692985
0.00121572,0.00755918,0.007815,-0.000608844,-0.0040125,-0.00117537,-4.11592e-06,-2.15709e-06,0.000692901,-0.000693282
0.00123755,0.00758032,0.00781488,-0.000609228,-0.00403274,-0.00117525,-3.1269e-06,6.77343e-06,0.000698542,-0.000698156
0.00125794,0.0075827,0.00781895,-0.000607542,-0.00402734,-0.00117339,-6.03976e-06,2.60877e-05,0.000695507,-0.00069537
0.00121639,0.00758187,0.00782475,-0.000607706,-0.00400795,-0.00117334,-3.77489e-06,1.1352e-06,0.000693579,-0.000693758
0.00120662,0.00757867,0.00783266,-0.000607711,-0.00398641,-0.00117391,4.72625e-07,-1.43022e-06,0.000693417,-0.000693351
0.00122694,0.00757625,0.00784021,-0.000607603,-0.00396432,-0.00117395,1.16632e-06,5.45489e-07,0.000693863,-0.00069382
0.0012396,0.00756557,0.00784624,-0.000608161,-0.00394088,-0.00117411,-1.18535e-06,-5.65969e-07,0.000692661,-0.000692664
0.00123883,0.00755688,0.00785393,-0.000608599,-0.00391805,-0.00117453,-7.98729e-07,1.34879e-06,0.000692642,-0.000692648
0.00122006,0.00757042,0.00785361,-0.000608457,-0.0039283,-0.00117227,-6.73852e-06,1.6784e-05,0.000696116,-0.000696299
0.00124611,0.00757857,0.00785581,-0.000607841,-0.00399581,-0.00117147,4.49303e-07,-2.60347e-08,0.000695382,-0.000695723
0.00122092,0.00759878,0.00785665,-0.000608712,-0.00406751,-0.00117099,-3.66391e-06,3.3397e-05,0.000695071,-0.000694878
0.00119259,0.00763769,0.00784512,-0.000610731,-0.00416093,-0.00117111,-5.99573e-06,1.34571e-05,0.000708563,-0.000708866
0.00121284,0.00765967,0.00783169,-0.000612015,-0.00424721,-0.00117066,-1.4886e-05,1.68908e-05,0.000708198,-0.000708502
0.00118986,0.0076754,0.00781878,-0.000611723,-0.00432754,-0.00116967,1.97868e-06,8.19518e-06,0.000704591,-0.000705019
0.00117151,0.00765545,0.00780563,-0.000613322,-0.00439651,-0.00117047,3.3076e-07,9.21048e-06,0.000701335,-0.000701303
0.00116289,0.00764675,0.00779357,-0.000613618,-0.00447043,-0.00117122,-3.54021e-06,2.5108e-06,0.000703082,-0.000703486
0.00118395,0.00762371,0.00778088,-0.000614138,-0.00452552,-0.00117196,-7.87068e-06,1.79361e-05,0.000707836,-0.000708102
0.00115067,0.00759675,0.00776542,-0.000611798,-0.00455571,-0.0011714,-2.39579e-06,-1.61628e-06,0.000703592,-0.000704091
0.00116774,0.00753803,0.00775603,-0.000613946,-0.0045712,-0.00117244,-2.21905e-05,2.79968e-06,0.000705903,-0.000706207
0.00118517,0.00751024,0.00774758,-0.000614168,-0.0045587,-0.00117251,-3.36828e-06,8.06136e-07,0.00069559,-0.000695576
0.00114295,0.00746278,0.00774429,-0.00061118,-0.00454557,-0.00117108,-8.79229e-06,1.29806e-05,0.000691243,-0.00069152
0.00120355,0.00742735,0.00773289,-0.000611603,-0.0045409,-0.00117208,2.48564e-06,4.13885e-06,0.000702349,-0.000702459
0.00121893,0.00742639,0.00771216,-0.000611659,-0.00453507,-0.00117131,-1.34118e-06,6.4709e-06,0.000696847,-0.000696772
0.00120276,0.0074222,0.00771607,-0.000610916,-0.00452209,-0.00117099,-1.55892e-05,9.88878e-07,0.000685854,-0.000686312
0.00122413,0.00741953,0.00771881,-0.000608942,-0.00450823,-0.00117094,-1.16025e-05,1.09596e-05,0.00069115,-0.000691069
0.00125282,0.00747163,0.00770582,-0.0006092,-0.00451012,-0.00117149,-6.28517e-06,1.02138e-06,0.000696637,-0.000696406
0.00127919,0.00751046,0.00769767,-0.000604766,-0.00451559,-0.00116972,2.50197e-06,4.18479e-06,0.000695261,-0.000695041
0.0012603,0.00755111,0.00768905,-0.000606721,-0.00453247,-0.00117014,1.62438e-06,5.38247e-06,0.000705574,-0.000705822
0.00123522,0.00758819,0.00767968,-0.000606531,-0.00453638,-0.00117056,-8.15537e-07,7.5995e-06,0.000698996,-0.000698895
0.00122256,0.00763441,0.00767203,-0.000607253,-0.00454042,-0.00117129,-1.73239e-05,-2.99229e-06,0.000702887,-0.000702695
0.00119954,0.00764716,0.00767008,-0.000608141,-0.00454353,-0.00116932,1.98128e-06,8.48262e-06,0.000700754,-0.00070076
0.00123048,0.0076631,0.00766501,-0.000608974,-0.00454797,-0.00116945,-1.2962e-05,2.28976e-05,0.000702218,-0.000702305
0.00120079,0.00766474,0.00766191,-0.000609046,-0.00455516,-0.00117035,-7.06504e-07,8.92969e-07,0.000701863,-0.000701898
0.00123252,0.00766816,0.00766106,-0.000611663,-0.00455784,-0.00117026,-1.71275e-05,5.52431e-06,0.000704342,-0.000704299
0.00120336,0.00762525,0.0076745,-0.00061116,-0.00454265,-0.00116994,-2.36129e-06,3.48769e-05,0.000700674,-0.000700891
0.00122278,0.00760562,0.00766759,-0.00061095,-0.00453247,-0.00116956,-5.8797e-06,1.06325e-06,0.000705408,-0.000705163
0.00118073,0.00757008,0.00767554,-0.000610376,-0.00451238,-0.00116846,1.16408e-06,2.53906e-05,0.000696777,-0.000696952
0.00121721,0.00752809,0.00767361,-0.000612049,-0.00450185,-0.00116669,-6.61954e-06,7.19972e-06,0.00069783,-0.00069813
0.00123684,0.00752591,0.00766491,-0.000613589,-0.00448807,-0.00116712,-1.54994e-06,2.90273e-06,0.000697762,-0.000697469
0.00120208,0.00748353,0.00767273,-0.000613808,-0.00447708,-0.00116653,-3.93398e-06,2.80786e-05,0.000692113,-0.00069256
0.00120136,0.00750094,0.00766241,-0.000612912,-0.00448362,-0.00116703,-4.87411e-06,-1.59714e-06,0.000696842,-0.000697141
0.00124151,0.00751867,0.00765152,-0.000612884,-0.00447681,-0.00116657,-6.11015e-06,-5.40483e-06,0.000692176,-0.000691973
0.0012225,0.00749218,0.00765512,-0.00061309,-0.00447423,-0.0011665,-1.09258e-05,2.69751e-05,0.000694835,-0.000694817
0.00125187,0.00753629,0.0076432,-0.000613461,-0.00448224,-0.00116708,-4.41013e-06,-1.25429e-06,0.000697672,-0.000697494
0.00122277,0.00755789,0.00764205,-0.000611501,-0.00449876,-0.00116624,-6.04107e-06,2.37879e-05,0.000703606,-0.00070395
0.00118925,0.00756141,0.00763861,-0.00060982,-0.00451251,-0.00116534,1.63229e-06,6.10267e-06,0.000698195,-0.000698589
0.00120208,0.00760747,0.00762776,-0.000610122,-0.00453032,-0.0011659,-6.9783e-06,1.01235e-06,0.000708368,-0.000708568
0.00120291,0.00760207,0.00763083,-0.000610115,-0.00453657,-0.00116637,-1.55626e-05,2.75069e-06,0.000704837,-0.000705034
0.00120561,0.00761206,0.00762948,-0.000607257,-0.00454192,-0.00116545,3.26361e-06,1.25291e-05,0.000700519,-0.000700754
0.00111986,0.00762305,0.00762909,-0.00060521,-0.00454181,-0.00116445,-1.02825e-05,1.91245e-05,0.000696587,-0.000696907
0.00115669,0.00760416,0.00762751,-0.000607243,-0.0045308,-0.00116599,7.37126e-07,3.25093e-06,0.000709235,-0.000709215
0.0011675,0.00759454,0.00762119,-0.000607929,-0.00452821,-0.00116582,-2.99557e-06,8.39151e-06,0.000698671,-0.000699004
0.00118707,0.00758713,0.0076174,-0.000608067,-0.00453336,-0.00116508,-2.68209e-06,1.96099e-05,0.000697047,-0.000697395
0.00115117,0.00757895,0.0076123,-0.000606346,-0.00454445,-0.00116406,2.56398e-07,-1.18885e-06,0.00069981,-0.000700237
0.00118102,0.00757274,0.00760758,-0.000607515,-0.00455218,-0.00116481,4.16047e-07,6.34057e-06,0.000705982,-0.0007062
0.0012092,0.00755428,0.00760198,-0.000609407,-0.00454813,-0.00116534,-1.23846e-06,1.65636e-05,0.000700946,-0.000700888
0.00119899,0.00754312,0.0076111,-0.000609881,-0.00453102,-0.00116636,-1.28667e-06,4.57969e-06,0.000693559,-0.000693848
0.00118503,0.0075341,0.00761447,-0.000608613,-0.00452401,-0.00116411,-9.43806e-06,7.60961e-06,0.000696302,-0.00069647
0.00124209,0.00751509,0.00761179,-0.000610665,-0.00452457,-0.0011652,2.52391e-06,3.06827e-06,0.000703684,-0.000703972
0.00120234,0.0075192,0.0076085,-0.000610998,-0.0045275,-0.0011657,-8.98981e-07,2.81166e-05,0.000704449,-0.000704369
0.00123875,0.00753077,0.00759626,-0.000612704,-0.00453294,-0.00116629,-3.72372e-06,-1.16016e-06,0.00069945,-0.000699569
0.00125117,0.00754491,0.00759132,-0.000613123,-0.00453702,-0.00116714,1.75624e-06,1.46394e-05,0.000703217,-0.000703207
0.00123869,0.00755537,0.00759602,-0.000613276,-0.00451992,-0.00116728,-1.2681e-05,1.19193e-05,0.000693187,-0.000693677
0.00119981,0.00754193,0.00760868,-0.000612835,-0.00451231,-0.00116659,-9.90667e-06,1.97684e-05,0.000701892,-0.000701928
0.00124775,0.00754461,0.00760789,-0.000607577,-0.00451251,-0.00116507,-5.98594e-06,8.00016e-06,0.000696756,-0.000696675
0.00121883,0.00756703,0.00760495,-0.000609974,-0.00452598,-0.00116639,-3.04116e-06,1.99021e-05,0.00069825,-0.000698617
0.00123323,0.00758232,0.00760316,-0.000609276,-0.00453283,-0.00116594,-5.57004e-06,4.39041e-06,0.000699593,-0.000700054
0.00121032,0.00759257,0.00759872,-0.000609906,-0.00453864,-0.00116669,6.3518e-07,1.38245e-05,0.000706771,-0.000707018
0.00123165,0.00760737,0.00759385,-0.00060688,-0.00454154,-0.00116513,-9.76986e-06,1.12273e-05,0.000699377,-0.000699745
0.00120112,0.00760123,0.00759241,-0.000607508,-0.00454857,-0.00116312,-2.10667e-06,-6.85726e-07,0.000700219,-0.000700643
0.00121208,0.00760476,0.00758564,-0.000609408,-0.00454453,-0.00116424,-7.8167e-07,4.36054e-06,0.000709236,-0.00070918
0.00122312,0.00760149,0.00758654,-0.000606438,-0.0045519,-0.00116369,-1.41937e-05,1.11975e-05,0.000698192,-0.000698542
0.00117828,0.00759679,0.00758774,-0.000606425,-0.00454402,-0.00116382,-1.15371e-06,-2.43336e-07,0.000700179,-0.000700164
0.00119797,0.00755249,0.00760218,-0.000606649,-0.00452729,-0.00116462,7.28886e-07,2.29103e-05,0.000698078,-0.000698359
0.00117414,0.00754879,0.00759581,-0.000603735,-0.00452493,-0.00116442,-1.30944e-05,1.77989e-06,0.000698031,-0.000698216
0.00118034,0.00755686,0.00758888,-0.000603883,-0.00453064,-0.00116429,-5.0267e-06,6.28065e-07,0.000701565,-0.000701872
0.00120449,0.00754747,0.00759,-0.000603624,-0.00452538,-0.00116365,-9.84531e-06,4.53691e-06,0.000700042,-0.00069997
0.00121589,0.00752557,0.00759965,-0.000601986,-0.00450584,-0.00116393,2.28511e-06,5.22431e-06,0.000692352,-0.000692405
0.00124822,0.00752853,0.00760469,-0.000601656,-0.0044975,-0.00116352,-2.01448e-06,1.35911e-05,0.000699465,-0.000699086
0.00122893,0.00752314,0.00761355,-0.000601583,-0.00448112,-0.0011633,-9.13554e-06,2.47529e-05,0.000693611,-0.00069352
0.00119348,0.00752117,0.00762252,-0.00060002,-0.00446793,-0.00116224,-5.2425e-06,7.9221e-06,0.000693833,-0.000694175
0.00117178,0.00752968,0.00762133,-0.00060064,-0.00447144,-0.00116172,4.65773e-07,1.10655e-05,0.00070488,-0.000704999
0.00119591,0.00756061,0.00761398,-0.000600522,-0.00448733,-0.00116206,-7.72874e-06,-7.19057e-07,0.000706032,-0.000706287
0.0012052,0.00758025,0.00760747,-0.000602514,-0.00449699,-0.00116172,-6.74119e-06,4.39571e-06,0.000699446,-0.00069935
0.00118619,0.00760083,0.00760818,-0.000601528,-0.00451264,-0.00116117,-1.03381e-05,4.52056e-06,0.000706656,-0.00070705
0.0012065,0.00761395,0.00760978,-0.000602061,-0.0045184,-0.0011613,-9.63501e-07,2.53329e-05,0.00070905,-0.000709057
0.00120843,0.00763077,0.00760867,-0.000601792,-0.0045155,-0.00116181,-6.48756e-06,-1.40367e-07,0.000702364,-0.00070212
0.00122483,0.00761529,0.00762433,-0.000600073,-0.00450569,-0.00116192,1.99207e-06,1.01684e-05,0.000704338,-0.000704397
0.00121673,0.00759219,0.00762982,-0.000598763,-0.00450281,-0.00116102,-2.39933e-06,1.62536e-05,0.000707262,-0.00070718
0.00122974,0.00760954,0.00761895,-0.000598816,-0.0045066,-0.001162,-4.5331e-06,-1.71079e-06,0.000700403,-0.000700266
0.00124075,0.00758892,0.00762644,-0.000600139,-0.00451523,-0.00116188,-3.91488e-06,2.13493e-05,0.000704796,-0.000704823
0.00124948,0.00758855,0.0076264,-0.000599181,-0.00451415,-0.00116036,-1.40184e-06,1.30759e-06,0.000700765,-0.000700662
0.00120887,0.00755886,0.00763802,-0.000596309,-0.00449561,-0.00115889,-2.43167e-06,2.79079e-05,0.000693342,-0.000693303
0.00122158,0.00753655,0.00765004,-0.000596232,-0.00447304,-0.00115929,3.70542e-07,5.76518e-07,0.000690152,-0.000690213
0.00122705,0.00750779,0.00765318,-0.000594156,-0.00446273,-0.00115936,2.98242e-07,1.97164e-05,0.000703685,-0.000703708
0.00125323,0.00752139,0.00764632,-0.000593232,-0.00446863,-0.00115797,-5.51195e-06,1.45236e-05,0.000703078,-0.000703239
0.00120727,0.00752896,0.0076367,-0.000595184,-0.00448308,-0.0011598,-3.26062e-06,1.76799e-05,0.000698356,-0.000698697
0.00122601,0.00754619,0.00763112,-0.000592974,-0.0044988,-0.00115979,-1.24747e-05,2.97391e-06,0.00069774,-0.000698147
0.00118486,0.00756369,0.00762831,-0.00059368,-0.00451458,-0.00115953,-2.40773e-06,1.95605e-05,0.000702819,-0.000703154
0.00122257,0.00757684,0.007618,-0.000592321,-0.00451358,-0.00115894,-1.69624e-06,-4.76376e-07,0.000700695,-0.000701141
0.00119754,0.00759705,0.0076119,-0.000590504,-0.00452218,-0.00115976,6.73619e-07,1.70698e-07,0.000699428,-0.000699695
0.00120542,0.00759352,0.00760764,-0.000588723,-0.00452628,-0.00116026,-5.61283e-06,2.16978e-05,0.000701862,-0.000702207
0.00118644,0.00760603,0.00760255,-0.000589302,-0.00452484,-0.00116098,-2.98404e-06,7.35524e-06,0.000702913,-0.000702727
0.00119563,0.00757366,0.00761461,-0.000589372,-0.00451058,-0.00116051,-1.3119e-06,2.73587e-05,0.000700837,-0.000701004
0.00117992,0.00757642,0.0076127,-0.000585994,-0.0045121,-0.00116048,2.24658e-07,-6.52245e-07,0.000695039,-0.000695122
0.00118109,0.00756116,0.00761676,-0.000583487,-0.00451466,-0.00116003,-4.23606e-06,2.15973e-05,0.000697914,-0.000698262
0.00119372,0.00757055,0.00760882,-0.000581419,-0.0045197,-0.00115962,-9.27393e-06,-4.88876e-07,0.000701597,-0.000701866
0.00122907,0.00756406,0.00760608,-0.000583336,-0.00452804,-0.00116055,-1.35278e-06,4.68762e-06,0.000706123,-0.000706334
0.00118775,0.00755624,0.00759625,-0.000585463,-0.00453053,-0.00116215,-1.56241e-06,-2.86019e-07,0.000700553,-0.000700773
0.00118966,0.00757685,0.00758894,-0.000585876,-0.00453244,-0.00116128,-1.04811e-05,1.63199e-05,0.000702609,-0.00070292
0.00121022,0.00754521,0.0075899,-0.00058394,-0.00453166,-0.0011607,3.37854e-07,3.4085e-06,0.000696439,-0.000696472
0.00119609,0.00755317,0.00758486,-0.000584977,-0.00454343,-0.00116146,-2.50353e-06,2.16792e-05,0.000700157,-0.00070048
0.00120903,0.00754949,0.00758216,-0.000581622,-0.00454421,-0.00116013,-2.51343e-07,5.38581e-06,0.000697491,-0.000697559
0.00123219,0.00755757,0.00757795,-0.000582545,-0.00454912,-0.00116022,1.02274e-06,3.42305e-06,0.000699428,-0.000699729
0.00121158,0.00755737,0.0075758,-0.000582855,-0.00454965,-0.00116066,-8.03295e-07,2.08246e-05,0.000703665,-0.000703643
0.00123631,0.00755818,0.00757325,-0.000583621,-0.00455223,-0.00116048,-9.3615e-06,3.4897e-06,0.000702978,-0.000703299
0.00121387,0.00754992,0.00756987,-0.000584101,-0.00455041,-0.00116116,1.26582e-06,4.19471e-06,0.000696904,-0.000696813
0.00117214,0.00755997,0.00756556,-0.000584686,-0.00455042,-0.00116167,-1.78526e-05,1.47324e-05,0.000700297,-0.000700269
0.00123409,0.00756883,0.00756078,-0.000586451,-0.00455593,-0.00116273,1.0042e-06,6.56465e-06,0.00070141,-0.000701267
0.00118455,0.00756159,0.00756222,-0.000584176,-0.00456627,-0.00116185,-4.85869e-06,1.14781e-05,0.000697642,-0.000698132
0.00120093,0.0075771,0.00755635,-0.000585437,-0.00457018,-0.0011629,-1.2436e-06,-7.62452e-07,0.000704561,-0.000704433
0.00120505,0.00756872,0.00756065,-0.000583969,-0.00457115,-0.00116268,-9.59394e-06,1.90481e-05,0.000705399,-0.000705679
0.00117782,0.00756514,0.007557,-0.000584842,-0.00456906,-0.00116227,1.26255e-06,2.05739e-06,0.000706452,-0.000706585
0.00121659,0.00757795,0.0075441,-0.000585146,-0.00455905,-0.00116275,8.99859e-07,5.29013e-06,0.000700112,-0.00070002
0.00121953,0.00756476,0.00755038,-0.000581221,-0.00455734,-0.00116091,-2.91819e-06,5.0777e-06,0.000699437,-0.000699454
0.00121187,0.00756143,0.00754924,-0.000583562,-0.00456329,-0.00116251,-1.01733e-05,1.31116e-07,0.00070071,-0.000700893
0.00122455,0.00756278,0.0075479,-0.000583661,-0.00456345,-0.00116259,-9.73315e-07,2.47855e-06,0.000705128,-0.00070516
0.00123531,0.00756404,0.00754685,-0.000583784,-0.00456202,-0.00116264,-8.0217e-07,8.47936e-06,0.000707886,-0.000707868
0.00125582,0.00757139,0.00754023,-0.000582501,-0.0045547,-0.00116246,-1.50965e-06,-3.82157e-06,0.000699286,-0.000699131
0.00121237,0.00757478,0.00753938,-0.000583194,-0.00455831,-0.00116266,-4.1735e-06,7.36025e-06,0.000701733,-0.000702154
0.00122924,0.00757682,0.00753808,-0.000584039,-0.00455475,-0.00116305,-6.50303e-06,-1.19531e-06,0.000707318,-0.000707682
0.00124142,0.00755821,0.00754173,-0.000583099,-0.00455412,-0.00116322,-9.37566e-06,2.72103e-06,0.000698039,-0.000698252
0.00125975,0.00757841,0.00753579,-0.000580869,-0.00455318,-0.00116267,-2.50356e-06,7.0044e-06,0.000694628,-0.000694418
0.00120698,0.00756213,0.00753802,-0.000582173,-0.00455514,-0.00116283,8.52261e-08,9.87352e-07,0.000706478,-0.000706556
0.00125083,0.00757473,0.00753785,-0.000580883,-0.00455334,-0.00116251,-9.55337e-06,1.93479e-05,0.000706681,-0.000706905
0.0012469,0.00756848,0.00753759,-0.000582455,-0.00454405,-0.00116319,-5.33256e-06,1.89519e-06,0.000703824,-0.000703527
0.00124315,0.00756366,0.00754058,-0.000584007,-0.0045398,-0.00116234,-1.03458e-05,1.94438e-05,0.000699473,-0.000699208
0.00118941,0.00756996,0.00754732,-0.000582385,-0.00454555,-0.00116174,6.01389e-07,5.37387e-06,0.000704744,-0.00070504
0.00125155,0.00756829,0.00755052,-0.000583178,-0.00453711,-0.00116116,-2.57894e-06,1.44669e-05,0.000701092,-0.00070088
0.00121505,0.00754123,0.00756726,-0.000584114,-0.00452105,-0.00116143,9.28622e-07,2.93892e-05,0.00069818,-0.000698459
0.00118999,0.00755602,0.00756426,-0.000584424,-0.00452357,-0.00116156,-2.08451e-05,3.66494e-06,0.000703998,-0.000704065
0.0011907,0.00755658,0.00756503,-0.000583551,-0.00452856,-0.00116141,-4.38451e-07,5.31158e-06,0.000704455,-0.000704867
0.00117454,0.00756773,0.00756294,-0.000582921,-0.00453419,-0.00116086,-2.98532e-06,2.90566e-05,0.000699538,-0.000699878
0.00122903,0.00757183,0.00755223,-0.000584591,-0.00452357,-0.00116187,-1.34018e-05,5.69046e-06,0.000699838,-0.000699545
0.00121749,0.00758088,0.00755056,-0.000583931,-0.00452031,-0.00116222,3.58108e-08,1.64084e-05,0.000698534,-0.000698413
0.00121861,0.007585,0.00755676,-0.000584983,-0.00453041,-0.00116179,-5.46093e-06,8.77203e-06,0.000705819,-0.000706
0.00123291,0.00759326,0.00754991,-0.000584591,-0.00453793,-0.00116237,-3.15096e-06,6.77529e-06,0.000701822,-0.000701708
0.00124673,0.00760741,0.00754848,-0.000585165,-0.00454154,-0.00116255,-1.26593e-05,6.21696e-06,0.000699923,-0.000699764
0.00120131,0.00757808,0.00755869,-0.000585163,-0.00455087,-0.0011617,1.85945e-06,5.72864e-06,0.000698938,-0.000699307
0.00122964,0.00758622,0.00755844,-0.000583768,-0.00454688,-0.00116143,-4.41232e-06,1.9161e-06,0.000698242,-0.000698063
0.00123328,0.00756448,0.0075659,-0.000586405,-0.00454934,-0.00116183,1.86699e-06,1.35505e-05,0.000706205,-0.000706144
0.00121166,0.00755735,0.00755862,-0.000587312,-0.00454865,-0.0011633,-5.22119e-06,1.69752e-05,0.000700926,-0.000701242
0.00121794,0.00755857,0.00755406,-0.000588927,-0.00454287,-0.0011639,7.41137e-07,1.81934e-05,0.000702855,-0.000702995
0.00122042,0.00756352,0.0075533,-0.000589512,-0.00453017,-0.00116404,-1.3438e-06,2.16619e-07,0.000697644,-0.000697585
0.00117167,0.00754841,0.00756622,-0.000589335,-0.00451109,-0.00116435,-3.12937e-06,2.80888e-06,0.000694638,-0.000694991
0.00120173,0.00751299,0.00757163,-0.000590596,-0.00449957,-0.00116536,-4.14042e-06,2.34057e-05,0.000698266,-0.000698004
0.00122235,0.00754087,0.00756311,-0.000591278,-0.00450138,-0.00116652,-5.38111e-06,3.38677e-06,0.00069957,-0.000699612
0.0011921,0.00755763,0.00755974,-0.000591015,-0.00450724,-0.00116667,-9.08967e-06,-1.88897e-07,0.000700121,-0.000700413
0.00120225,0.00757091,0.00755935,-0.000591436,-0.00451624,-0.00116666,-8.89332e-06,2.36074e-06,0.000699143,-0.000699492
0.00119737,0.0075843,0.00755948,-0.00059226,-0.00452425,-0.0011667,1.71207e-06,2.60665e-06,0.000707435,-0.000707738
0.00121774,0.00758601,0.00755801,-0.000594902,-0.00452189,-0.0011665,-1.06176e-05,4.92325e-06,0.000701505,-0.000701347
0.00121696,0.00757667,0.00755989,-0.000593817,-0.00452194,-0.00116544,-1.27646e-06,1.1395e-05,0.000700545,-0.000700523
0.00118543,0.0075893,0.00756184,-0.000591038,-0.00452755,-0.00116464,3.24517e-06,2.3808e-05,0.000703584,-0.000703827
0.00117523,0.00761116,0.00755316,-0.000593835,-0.00452708,-0.00116544,-9.45743e-06,-3.92036e-06,0.000698877,-0.000699226
0.00120043,0.00758117,0.00755214,-0.000594993,-0.0045163,-0.00116561,-5.75908e-06,5.06978e-06,0.000700698,-0.00070048
0.0011968,0.00759397,0.00754997,-0.000593333,-0.00451184,-0.00116576,-5.41093e-06,2.08208e-05,0.000695883,-0.000695678
